!!!!SEGMENT: pl-sa--153-a-iv-3--002_anonim--msza-gloria.krn
!!!cenid: 17xx:1526
!!!COM: Anonim
!!!COM-rismID: pe30004985
!!!CDT:
!!!CNT:
!!!OPR: Msza
!!!OTL: Gloria
!!!OMV: 002
!!!PDT:
!!!AGN: Sacred; Mass
!!!SMS-siglum: PL-SA
!!!SMS-shelfmark: 153/A IV 3
!!!SMS-shelfwork: 001-002 M
!!!SMS-variant:
!!!SMS-altvar:
!!!NIFC-rismSourceID: 1001035513
!!!NIFC-islandoraID:
!!!URL-pdf-islandora:
!!!URL-scan: https://bc.bdsandomierz.pl/dlibra/publication/1539/edition/1507/content @EN{Scan in the Sandomierz Diocese Digital Library} @PL{Skany w portalu Cyfrowa Biblioteka Diecezjalna w Sandomierzu}
!!!ONB-nifc: UWAGA: części Mszy: 1. Kirie, 2. Gloria, 3. Patrem, 4. Sanctus, 5. Benedictus, 6. Agnus. Uwaga: kontynuacja partii b. fig na str. 22
!!!AIN: 1 bass 2 clrno 1 soprn 2 violn
!!!key: D
**kern	**dynam	**fb	**kern	**dynam	**kern	**dynam	**kern	**text	**kern	**text	**kern	**kern
*part7	*part7	*	*part6	*part6	*part5	*part5	*part4	*part4	*part3	*part3	*part2	*part1
*staff7	*	*	*staff6	*	*staff5	*	*staff4	*staff4	*staff3	*staff3	*staff2	*staff1
*group	*group	*	*group3	*group3	*group3	*group3	*group2	*group2	*group2	*group2	*group1	*group1
*I"Fundamento	*	*	*I"Violino Secundo	*	*I"Violino Primo	*	*I"Baſso	*	*I"Canto	*	*I"Clarino Secundo	*I"Clarino Primo
*I'bc	*	*	*I'vl 2	*	*I'vl 1	*	*I'B	*	*I'S	*	*I'clno 2 in D	*I'clno 1 in D
*I	*	*	*Ivioln	*	*Ivioln	*	*Ibass	*	*Isoprn	*	*Iclrno	*Iclrno
*IC	*	*	*ICstr	*	*ICstr	*	*ICvox	*	*ICvox	*	*ICbras	*ICbras
*IGcont	*	*	*	*	*	*	*	*	*	*	*	*
*clefF4	*	*	*clefG2	*	*clefG2	*	*clefF4	*	*clefC1	*	*clefG2	*clefG2
*	*	*	*	*	*	*	*	*	*	*	*ITrd-1c-2	*ITrd-1c-2
*k[f#c#]	*	*	*k[f#c#]	*	*k[f#c#]	*	*k[f#c#]	*	*k[f#c#]	*	*k[f#c#]	*k[f#c#]
*D:	*	*	*D:	*	*D:	*	*D:	*	*D:	*	*D:	*D:
*M4/4	*	*	*M4/4	*	*M4/4	*	*M4/4	*	*M4/4	*	*M4/4	*M4/4
*met(c)	*	*	*met(c)	*	*met(c)	*	*met(c)	*	*met(c)	*	*met(c)	*met(c)
=1	=1	=1	=1	=1	=1	=1	=1	=1	=1	=1	=1	=1
*	*	*above	*	*	*	*	*	*	*	*	*	*
!LO:TX:a:i:t=Tutti	!	!	!	!	!	!	!	!	!LO:N:vis=8..	!	!	!
!LO:TX:a:i:t=Allo&colon;	!	!	!	!	!LO:TX:a:i:t=Allo.	!	!LO:TX:a:i:t=Allo&colon;	!	!LO:TX:a:i:t=Allo	!	!LO:TX:a:i:t=Allo&colon;	!LO:TX:a:i:t=Allo
!	!	!	!	!	!	!	!	!	!LO:TX:a:t=P:problem=w źródle kolejność i wysokość znaków przykluczowych - f# cc#	!	!	!
8.d\L	.	.	8.dd\L	.	8.ff#\L	.	8.d\	Glo-	8.ff#\	Glo-	8.ff#\L	8.aa\L
!	!	!	!	!	!LO:N:vis=8	!	!	!	!	!	!	!
16d\Jk	.	.	16dd\Jk	.	16ff#\Jk	.	16d\	-ri-	16ff#\	-ri-	16ff#\Jk	16aa\Jk
4d\	.	.	4dd\	.	4ff#\	.	4d\	-a	4ff#\	-a	4ff#\	4aa\
8B\L	.	.	8dd\L	.	8ff#\L	.	8B\	in	8dd\	in	4dd\	4ff#\
8B\	.	.	8dd\	.	8ff#\	.	8B\	ex-	8dd\	ex-	.	.
8B\	.	.	8dd\	.	8ff#\	.	8B\	-cel-	8dd\	-cel-	4dd\	4ff#\
8B\J	.	.	8dd\J	.	8ff#\J	.	8B\	-sis	8dd\	-sis	.	.
=2	=2	=2	=2	=2	=2	=2	=2	=2	=2	=2	=2	=2
*	*	*	*tremolo	*	*tremolo	*	*	*	*	*	*	*
4F#\	.	.	16ccn\LL	.	16aa\LL	.	4F#\	De-	4ccn\	De-	8r	8r
.	.	.	16cc\	.	16aa\	.	.	.	.	.	.	.
.	.	.	16cc\	.	16aa\	.	.	.	.	.	8d/L	8d/L
.	.	.	16cc\JJ	.	16aa\JJ	.	.	.	.	.	.	.
*	*	*	*Xtremolo	*	*Xtremolo	*	*	*	*	*	*	*
!	!	!	!LO:TX:t=P:problem=mixed beam	!	!LO:TX:t=P:problem=mixed beam	!	!	!	!	!	!	!
4F#\	.	.	16d/LL	.	16a/LL	.	4F#\	-o	4cc\	-o	8d/	8d/
.	.	.	16d/	.	16a\	.	.	.	.	.	.	.
.	.	.	16cc\	.	16aa\	.	.	.	.	.	8d/J	8d/J
.	.	.	16cc\JJ	.	16aa\JJ	.	.	.	.	.	.	.
*	*	*	*tremolo	*	*tremolo	*	*	*	*	*	*	*
8G\L	.	.	16dd\LL	.	16bb\LL	.	8G\	in	8b\	in	8d/L	8d/L
.	.	.	16dd\	.	16bb\	.	.	.	.	.	.	.
8G\	.	.	16dd\	.	16bb\	.	8G\	ex-	8b\	ex-	16d/L	16d/L
.	.	.	16dd\JJ	.	16bb\JJ	.	.	.	.	.	16d/JJ	16d/JJ
*	*	*	*Xtremolo	*	*Xtremolo	*	*	*	*	*	*	*
!	!	!	!LO:TX:t=P:problem=mixed beam	!	!LO:TX:t=P:problem=mixed beam	!	!	!	!	!	!	!
8G\	.	.	16d/LL	.	16b/LL	.	8G\	-cel-	8b\	-cel-	8d/L	4d/
.	.	.	16d/	.	16b/	.	.	.	.	.	.	.
8G\J	.	.	16dd\	.	16bb\	.	8G\	-sis	8b\	-sis	8d/J	.
.	.	.	16dd\JJ	.	16bb\JJ	.	.	.	.	.	.	.
=3	=3	=3	=3	=3	=3	=3	=3	=3	=3	=3	=3	=3
*	*	*	*tremolo	*	*tremolo	*	*	*	*	*	*	*
4D#X\	.	.	16ff#X\LL	.	16aa\LL	.	4D#X\	De-	4b\	De-	8r	8r
.	.	.	16ff#\	.	16aa\	.	.	.	.	.	.	.
.	.	.	16ff#\	.	16aa\	.	.	.	.	.	4ff#\	4aa\
.	.	.	16ff#\JJ	.	16aa\JJ	.	.	.	.	.	.	.
*	*	*	*Xtremolo	*	*Xtremolo	*	*	*	*	*	*	*
!	!	!	!LO:TX:t=P:problem=mixed beam	!	!LO:TX:t=P:problem=mixed beam	!	!	!	!	!	!	!
4D#\	.	.	16f#/LL	.	16a/LL	.	4D#\	-o	4b\	-o	.	.
.	.	.	16f#/	.	16a/	.	.	.	.	.	.	.
.	.	.	16ff#\	.	16aa\	.	.	.	.	.	8ff#\	8aa\
.	.	.	16ff#\JJ	.	16aa\JJ	.	.	.	.	.	.	.
*	*	*	*tremolo	*	*tremolo	*	*	*	*	*	*	*
8E\L	.	.	16ee\LL	.	16gg\LL	.	8E\	in	8b\	in	4ee\	4gg\
.	.	.	16ee\	.	16gg\	.	.	.	.	.	.	.
8Dn\J	.	.	16ee\	.	16gg\	.	8Dn\	ex-	8b\	ex-	.	.
.	.	.	16ee\JJ	.	16gg\JJ	.	.	.	.	.	.	.
*	*	*	*Xtremolo	*	*Xtremolo	*	*	*	*	*	*	*
!	!	!	!LO:TX:t=P:problem=mixed beam	!	!LO:TX:t=P:problem=mixed beam	!	!	!	!	!	!	!
8C#X/L	.	.	16e/LL	.	16g/LL	.	8C#X/	-cel-	8a\	-cel-	4ee\	4gg\
.	.	.	16e/	.	16g/	.	.	.	.	.	.	.
8AA/J	.	.	16ee\	.	16gg\	.	8AA/	-sis	8a\	-sis	.	.
.	.	.	16ee\JJ	.	16gg\JJ	.	.	.	.	.	.	.
=4	=4	=4	=4	=4	=4	=4	=4	=4	=4	=4	=4	=4
8D/L	.	.	4dd\	.	4ff#\	.	4D/	De-	(>8a\L	De-	4dd\	4ff#t\
8GG#X/J	.	.	.	.	.	.	.	.	8b\J)	.	.	.
!LO:TX:t=P:problem=mixed beam	!	!	!	!	!	!	!	!	!	!	!	!
16AA/LL	.	.	4cc#\	.	4ee\	.	4AA/	-o	4a\	-o	4a/	4ee\
16A\	.	.	.	.	.	.	.	.	.	.	.	.
16c#X\	.	.	.	.	.	.	.	.	.	.	.	.
16A\JJ	.	.	.	.	.	.	.	.	.	.	.	.
8d\L	.	.	16dd\LL	.	16ff#\LL	.	8d\	Glo-	8a\	glo-	8dd\	8ff#\
.	.	.	16ff#\	.	16ddd\	.	.	.	.	.	.	.
8d\	.	.	16dd\	.	16ff#\	.	16d\	-ri-	16a\	-ri-	4dd\	4ff#\
.	.	.	16ff#\JJ	.	16ddd\JJ	.	16d\	-a	16a\	-a	.	.
8c#\	.	.	16dd\LL	.	16ff#\LL	.	8c#\	in	8a\	in	.	.
.	.	.	16ff#\	.	16ddd\	.	.	.	.	.	.	.
8c#\J	.	.	16dd\	.	16ff#\	.	8c#\	ex	8a\	ex-	[>8dd\	[>8ff#\
.	.	.	16ff#\JJ	.	16ddd\JJ	.	.	.	.	.	.	.
!LO:LB:g=original	!	!	!	!	!	!	!LO:LB:g=original	!	!	!	!	!
=5	=5	=5	=5	=5	=5	=5	=5	=5	=5	=5	=5	=5
8B\L	.	.	16dd\LL	.	16ff#\LL	.	4B\	Cel-	4dd\	-cel-	8dd\]	8ff#\]
.	.	.	16ff#\	.	16ddd\	.	.	.	.	.	.	.
8B\	.	.	16dd\	.	16ff#\	.	.	.	.	.	4dd\	4ff#\
.	.	.	16ff#\JJ	.	16ddd\JJ	.	.	.	.	.	.	.
8F#\	.	.	16dd\LL	.	16ff#\LL	.	4F#\	-sis	4dd\	-sis	.	.
.	.	.	16ff#\	.	16ddd\	.	.	.	.	.	.	.
8F#\J	.	.	16dd\	.	16ff#\	.	.	.	.	.	8dd\	8ff#\
.	.	.	16ff#\JJ	.	16ddd\JJ	.	.	.	.	.	.	.
*	*	*	*	*	*	*	*	*	*	*	*	*2\right
!	!	!	!	!	!	!	!	!	!LO:LB:g=original	!	!	!
8G\L	.	.	16dd\LL	.	16ee\LL	.	(>4G\	De-	(>4dd\	De-	4dd\	2eeT\
.	.	.	16ee\	.	16ddd\	.	.	.	.	.	.	.
8G\	.	.	16dd\	.	16ee\	.	.	.	.	.	.	.
.	.	.	16ee\JJ	.	16ddd\JJ	.	.	.	.	.	.	.
8A\	.	.	16cc#\LL	.	16ee\LL	.	4A\)	.	4cc#\)	.	4a/	.
.	.	.	16ee\	.	16ccc#\	.	.	.	.	.	.	.
8A\J	.	.	16cc#\	.	16ee\	.	.	.	.	.	.	.
.	.	.	16ee\JJ	.	16ccc#\JJ	.	.	.	.	.	.	.
=6	=6	=6	=6	=6	=6	=6	=6	=6	=6	=6	=6	=6
4D\	.	.	8ff#\L	.	8ddd\L	.	4D\	-o	4dd\	-o	4f#/	4dd\
.	.	.	(>16dd\L	.	16ff#\L	.	.	.	.	.	.	.
.	.	.	16ee\JJ)	.	16gg\JJ	.	.	.	.	.	.	.
!LO:TX:a:i:t=Solo	!	!	!LO:TX:t=P:problem=mixed beam	!	!LO:TX:t=P:problem=mixed beam	!	!	!	!	!	!	!
4r	.	.	8ff#\L	.	8aa\L	.	4r	.	4r	.	4r	4r
.	.	.	8f#/	.	8a/J	.	.	.	.	.	.	.
!	!	!	!	!	!LO:TX:t=P:problem=mixed beam	!	!	!	!	!	!	!
8r	.	.	8ff#\	.	8aa\L	.	2r	.	2r	.	2r	2r
!LO:TX:t=P:problem=mixed beam	!	!	!	!	!	!	!	!	!	!	!	!
8d\L	.	.	8d/J	.	8f#/J	.	.	.	.	.	.	.
.	.	.	8qgg/	.	8qqbb/	.	.	.	.	.	.	.
8D/	.	.	8ff#\L	.	8aa\L	.	.	.	.	.	.	.
8d\J	.	.	16ee\L	.	16gg\L	.	.	.	.	.	.	.
.	.	.	16dd\JJ	.	16ff#\JJ	.	.	.	.	.	.	.
!	!	!	!LO:LB:g=original	!	!	!	!	!	!	!	!	!
=7	=7	=7	=7	=7	=7	=7	=7	=7	=7	=7	=7	=7
4A\	.	.	8ee/L	.	8gg\L	.	00r	.	00r	.	1r	1r
.	.	.	(16cc#\L	.	(>16ee\L	.	.	.	.	.	.	.
.	.	.	16dd\JJ)	.	16ff#\JJ)	.	.	.	.	.	.	.
!	!	!	!LO:TX:t=P:problem=mixed beam	!	!LO:TX:t=P:problem=mixed beam	!	!	!	!	!	!	!
4r	.	.	8ee\L	.	8gg\L	.	.	.	.	.	.	.
.	.	.	8e/J	.	8g/J	.	.	.	.	.	.	.
!	!	!	!LO:TX:t=P:problem=mixed beam	!	!LO:TX:t=P:problem=mixed beam	!	!	!	!	!	!	!
8r	.	.	8ee\L	.	8gg\L	.	.	.	.	.	.	.
!LO:TX:t=P:problem=mixed beam	!	!	!	!	!	!	!	!	!	!	!	!
8A\L	.	.	8c#/J	.	8e/J	.	.	.	.	.	.	.
.	.	.	.	.	8qqaa/	.	.	.	.	.	.	.
8AA/	.	.	8ee\L	.	8gg\L	.	.	.	.	.	.	.
8A\J	.	.	16dd\L	.	(>16ff#\L	.	.	.	.	.	.	.
.	.	.	16cc#\JJ	.	16ee\JJ)	.	.	.	.	.	.	.
!	!	!	!	!	!LO:LB:g=original	!	!	!	!	!	!	!
=8	=8	=8	=8	=8	=8	=8	=8	=8	=8	=8	=8	=8
4D\	.	.	8dd\L	.	8ff#\L	.	.	.	.	.	8r	8r
.	.	.	16ff#\L	.	16dd\L	.	.	.	.	.	16dd\LL	16ff#\LL
.	.	.	16gg\JJ	.	16ee\JJ	.	.	.	.	.	16ee\JJ	16gg\JJ
!	!	!	!LO:TX:t=P:problem=mixed beam	!	!LO:TX:t=P:problem=mixed beam	!	!	!	!	!	!	!
4r	.	.	8aa\L	.	8ff#\L	.	.	.	.	.	8ff#\L	8aa\L
.	.	.	8a/J	.	8f#/J	.	.	.	.	.	8ff#\J	8aa\J
!	!	!	!LO:TX:t=P:problem=mixed beam	!	!LO:TX:t=P:problem=mixed beam	!	!	!	!	!	!	!
8r	.	.	8aa\L	.	8ff#\L	.	.	.	.	.	8ff#\	8aa\
!LO:TX:t=P:problem=mixed beam	!	!	!	!	!	!	!	!	!	!	!	!
8D\L	.	.	8f#/J	.	8d/J	.	.	.	.	.	4ff#\	4aa\
.	.	.	8qqbb/	.	8qgg/	.	.	.	.	.	.	.
8DD/	.	.	8aa\L	.	8ff#\L	.	.	.	.	.	.	.
8D\J	.	.	16gg\L	.	(>16ee\L	.	.	.	.	.	16ee\LL	(>16gg\LL
.	.	.	16ff#\JJ	.	16dd\JJ)	.	.	.	.	.	16dd\JJ	16ff#\JJ)
=9	=9	=9	=9	=9	=9	=9	=9	=9	=9	=9	=9	=9
4AA/	.	.	8gg\L	.	8ee\L	.	.	.	.	.	8ee\L	8gg\L
.	.	.	16ee\L	.	(>16cc#\L	.	.	.	.	.	16a\L	(>16ee\L
.	.	.	16ff#\JJ	.	16dd\JJ)	.	.	.	.	.	16dd\JJ	16ff#\JJ)
!	!	!	!LO:TX:t=P:problem=mixed beam	!	!LO:TX:t=P:problem=mixed beam	!	!	!	!	!	!	!
4r	.	.	8gg\L	.	8ee\L	.	.	.	.	.	8ee\L	8gg\L
.	.	.	8g/J	.	8e/J	.	.	.	.	.	8ee\J	8gg\J
!	!	!	!LO:TX:t=P:problem=mixed beam	!	!LO:TX:t=P:problem=mixed beam	!	!	!	!	!	!	!
8r	.	.	8gg\L	.	8ee\L	.	.	.	.	.	8ee\	8gg\
!LO:TX:t=P:problem=mixed beam	!	!	!	!	!	!	!	!	!	!	!	!
8A\L	.	.	8e/J	.	8c#/J	.	.	.	.	.	4ee\	4gg\
.	.	.	8qqaa/	.	8qqff#/	.	.	.	.	.	.	.
8AA/	.	.	8gg\L	.	8ee\L	.	.	.	.	.	.	.
8A\J	.	.	16ff#\L	.	(>16dd\L	.	.	.	.	.	16dd\LL	(>16ff#\LL
.	.	.	16ee\JJ	.	16cc#\JJ)	.	.	.	.	.	16a\JJ	16ee\JJ)
!	!	!	!	!	!	!	!	!	!	!	!LO:LB:g=original	!
=10	=10	=10	=10	=10	=10	=10	=10	=10	=10	=10	=10	=10
!	!	!	!LO:TX:t=P:problem=mixed beam	!	!	!	!	!	!	!	!	!
4D\	.	.	8ff#\L	.	8dd\L|	.	.	.	.	.	4dd\	4ff#\
.	.	.	8f#/	.	(>8dd\	.	.	.	.	.	.	.
8E\L	.	.	8g/	.	8cc#\	.	.	.	.	.	4r	4r
8F#\J	.	.	8a/J	.	8ccn\J)	.	.	.	.	.	.	.
4G\	.	.	4d/	.	8b\L	.	.	.	.	.	2r	2r
.	.	.	.	.	8dd#X\J	.	.	.	.	.	.	.
16r	.	.	16r	.	[>4ee\	.	.	.	.	.	.	.
16G\LL	.	.	16b/LL	.	.	.	.	.	.	.	.	.
16F#\	.	.	16a/	.	.	.	.	.	.	.	.	.
16G\JJ	.	.	16b/JJ	.	.	.	.	.	.	.	.	.
=11	=11	=11	=11	=11	=11	=11	=11	=11	=11	=11	=11	=11
*	*	*	*	*	*cue	*	*	*	*	*	*	*
!	!	!	!	!	!LO:N:xstem	!	!	!	!	!	!	!
8E\L	.	.	8g#X/L	.	8ee\]	.	00r	.	00r	.	1r	1r
*	*	*	*	*	*Xcue	*	*	*	*	*	*	*
8E\	.	.	8g#/	.	(>8ee\L	.	.	.	.	.	.	.
8F#\	.	.	8a/	.	8dd#X\	.	.	.	.	.	.	.
8G#X\J	.	.	8b/J	.	8ddn\J)	.	.	.	.	.	.	.
8A\L	.	.	8e/L	.	8cc#X\L	.	.	.	.	.	.	.
8B\	.	.	8d/	.	8gg#X\J	.	.	.	.	.	.	.
8c#\	.	.	8e/	.	4aa\	.	.	.	.	.	.	.
8A\J	.	.	8c#/J	.	.	.	.	.	.	.	.	.
!	!	!	!	!	!	!	!	!	!	!	!	!LO:LB:g=original
=12	=12	=12	=12	=12	=12	=12	=12	=12	=12	=12	=12	=12
!	!	!	!LO:TX:t=P:problem=mixed beam	!	!	!	!	!	!	!	!	!
4d\	.	.	8f#/L	.	8aa\L	.	.	.	.	.	4r	4r
.	.	.	16dd\L	.	16ff#\L	.	.	.	.	.	.	.
.	.	.	16ee\JJ	.	16ggn\JJ	.	.	.	.	.	.	.
8r	.	.	8ff#\L	.	8aa\L	.	.	.	.	.	8r	8r
8G\	.	.	8gg\J	.	8bb\J	.	.	.	.	.	16d/LL	16d/LL
.	.	.	.	.	.	.	.	.	.	.	16d/JJ	16d/JJ
4d\	.	.	8ff#\L	.	8aa\L	.	.	.	.	.	4d/	4d/
.	.	.	16dd\L	.	16ff#\L	.	.	.	.	.	.	.
.	.	.	16ee\JJ	.	16gg\JJ	.	.	.	.	.	.	.
8r	.	.	8ff#\L	.	8aa\L	.	.	.	.	.	8r	8r
8G\	.	.	8gg\J	.	8bb\J	.	.	.	.	.	16d/LL	16d/LL
.	.	.	.	.	.	.	.	.	.	.	16d/JJ	16d/JJ
=13	=13	=13	=13	=13	=13	=13	=13	=13	=13	=13	=13	=13
8d\	.	.	8ff#\L	.	8aa\L	.	.	.	.	.	8d/	8d/
8r	.	.	(>16ee\L	.	16gg\L	.	.	.	.	.	8r	8r
.	.	.	16dd\JJ)	.	16ff#\JJ	.	.	.	.	.	.	.
.	.	.	8qqff#/	.	8qqaa/	.	.	.	.	.	.	.
8A\	.	.	8ee\L	.	8gg\L	.	.	.	.	.	8A/	8A/
8r	.	.	(>16dd\L	.	16ff#\L	.	.	.	.	.	8r	8r
.	.	.	16cc#\JJ)	.	16ee\JJ	.	.	.	.	.	.	.
.	.	.	.	.	8qqgg/	.	.	.	.	.	.	.
8d\	.	.	8aa\L	.	8ff#\L	.	.	.	.	.	8d/	8d/
8r	.	.	(>16gg\L	.	16ee\L	.	.	.	.	.	8r	8r
.	.	.	16ff#\JJ)	.	16dd\JJ	.	.	.	.	.	.	.
.	.	.	8qqaa/	.	8qqff#/	.	.	.	.	.	.	.
8A\	.	.	8gg\L	.	8ee\L	.	.	.	.	.	8A/	8A/
8r	.	.	16ff#\L	.	16dd\L	.	.	.	.	.	8r	8r
.	.	.	16ee\JJ	.	16cc#\JJ	.	.	.	.	.	.	.
!LO:LB:g=original	!	!	!	!	!	!	!	!	!	!	!	!
=14	=14	=14	=14	=14	=14	=14	=14	=14	=14	=14	=14	=14
!	!	!	!LO:TX:t=P:problem=mixed beam	!	!LO:TX:t=P:problem=mixed beam	!	!	!	!	!	!	!
8r	.	.	8ff#\L	.	8dd\L	.	.	.	.	.	8d/	8d/
16F#\LL	.	.	16f#/L|	.	16f#/L|	.	.	.	.	.	8r	8r
16G\JJ	.	.	16g/JJ|	.	16g/JJ|	.	.	.	.	.	.	.
8A\L	.	.	8a/L|	.	8a/L	.	.	.	.	.	4r	4r
8B\J	.	.	8b/J|	.	8b/J	.	.	.	.	.	.	.
4C#/	.	.	4c#/|	.	4c#/	.	.	.	.	.	2r	2r
4D/	.	.	4d/|	.	4d/	.	.	.	.	.	.	.
=15	=15	=15	=15	=15	=15	=15	=15	=15	=15	=15	=15	=15
8G\L	.	.	8g/L	.	8g/L	.	2r	.	2r	.	2r	2r
16F#\L	.	.	16f#/L	.	16f#/L	.	.	.	.	.	.	.
16E\JJ	.	.	16e/JJ	.	16e/JJ	.	.	.	.	.	.	.
!LO:TX:t=P:problem=mixed beam	!	!	!	!	!	!	!	!	!	!	!	!
8A\L	.	.	8a/L	.	8a/L	.	.	.	.	.	.	.
8AA/J	.	.	8A/J	.	8A/J	.	.	.	.	.	.	.
!LO:TX:t=P:problem=mixed beam	!	!	!LO:TX:t=P:problem=mixed beam	!	!LO:TX:t=P:problem=mixed beam	!	!	!	!	!	!	!
!LO:TX:a:i:t=Tutti	!	!	!LO:TX:a:i:t=Tutti	!	!LO:TX:a:i:t=Tutti	!	!	!	!	!	!	!
!	!	!	!LO:LB:g=original	!	!LO:LB:g=original	!	!	!	!	!	!	!
8D/L	.	.	8d/L	.	8d/L	.	4d\	Et	4ff#\	Et	8r	8r
8d\	.	.	8dd\	.	8ff#\	.	.	.	.	.	8ff#\L	8aa\L
8d\	.	.	8dd\	.	8ff#\	.	8r	.	8r	.	8ff#\	8aa\
8d\J	.	.	8dd\J	.	8ff#\J	.	8d\	in	8ff#\	in	8ff#\J	8aa\J
=16	=16	=16	=16	=16	=16	=16	=16	=16	=16	=16	=16	=16
8B\L	.	.	8dd\L	.	8ff#\L	.	4B\	ter-	4dd\	ter-	8.dd\L	8.ff#\L
8B\	.	.	8dd\	.	8ff#\	.	.	.	.	.	.	.
.	.	.	.	.	.	.	.	.	.	.	16dd\Jk	16ff#\Jk
8B\	.	.	8dd\	.	8ff#\	.	4B\	-ra	4dd\	-ra	4dd\	4ff#\
8B\J	.	.	8dd\J	.	8ff#\J	.	.	.	.	.	.	.
!	!	!	!	!	!LO:TX:t=P:problem=mixed beam	!	!	!	!	!	!	!
4F#\	.	.	16ff#\LL	.	8aa\L	.	4F#\	pax	4ccn\	pax	2r	8r
.	.	.	16ff#\	.	.	.	.	.	.	.	.	.
.	.	.	16ff#\	.	8aa\	.	.	.	.	.	.	8d/L
.	.	.	16ff#\JJ	.	.	.	.	.	.	.	.	.
!	!	!	!LO:TX:t=P:problem=mixed beam	!	!	!	!	!	!	!	!	!
4F#\	.	.	16f#/LL	.	8a/	.	4F#\	ho-	4cc\	ho-	.	8d/
.	.	.	16f#/	.	.	.	.	.	.	.	.	.
.	.	.	16ff#\	.	8aa\J	.	.	.	.	.	.	8d/J
.	.	.	16ff#\JJ	.	.	.	.	.	.	.	.	.
=17	=17	=17	=17	=17	=17	=17	=17	=17	=17	=17	=17	=17
*	*	*	*tremolo	*	*tremolo	*	*	*	*	*	*	*
8G\L	.	.	16gg\LL	.	16bb\LL	.	8.G\	-mi-	8.b\	-mi-	8r	4d/
.	.	.	16gg\	.	16bb\	.	.	.	.	.	.	.
8G\	.	.	16gg\	.	16bb\	.	.	.	.	.	16d/LL	.
.	.	.	16gg\JJ	.	16bb\JJ	.	16G\	-ni-	16b\	-ni-	16d/JJ	.
*	*	*	*Xtremolo	*	*Xtremolo	*	*	*	*	*	*	*
!	!	!	!LO:TX:t=P:problem=mixed beam	!	!LO:TX:t=P:problem=mixed beam	!	!	!	!	!	!	!
8G\	.	.	16g/LL	.	16b/LL	.	4G\	-bus	4b\	-bus	4d/	4r
.	.	.	16g/	.	16b/	.	.	.	.	.	.	.
8G\J	.	.	16gg\	.	16bb\	.	.	.	.	.	.	.
.	.	.	16gg\JJ	.	16bb\JJ	.	.	.	.	.	.	.
*	*	*	*tremolo	*	*tremolo	*	*	*	*	*	*	*
4D#X\	.	.	16ff#\LL	.	16aa\LL	.	4D#X\	bo-	4b\	bo-	8r	8r
.	.	.	16ff#\	.	16aa\	.	.	.	.	.	.	.
.	.	.	16ff#\	.	16aa\	.	.	.	.	.	4ff#\	4aa\
.	.	.	16ff#\JJ	.	16aa\JJ	.	.	.	.	.	.	.
*	*	*	*Xtremolo	*	*Xtremolo	*	*	*	*	*	*	*
!	!	!	!LO:TX:t=P:problem=mixed beam	!	!LO:TX:t=P:problem=mixed beam	!	!	!	!	!	!	!
4D#\	.	.	16f#/LL	.	16a/LL	.	4D#\	-ne	4b\	-ne	.	.
.	.	.	16f#/	.	16a/	.	.	.	.	.	.	.
.	.	.	16ff#\	.	16aa\	.	.	.	.	.	8ff#\	8aa\
.	.	.	16ff#\JJ	.	16aa\JJ	.	.	.	.	.	.	.
=18	=18	=18	=18	=18	=18	=18	=18	=18	=18	=18	=18	=18
*	*	*	*tremolo	*	*tremolo	*	*	*	*	*	*	*
8E/L	.	.	16ee\LL	.	16gg\LL	.	8E\	bo-	8b\	bo-	4ee\	4gg\
.	.	.	16ee\	.	16gg\	.	.	.	.	.	.	.
8Dn/	.	.	16ee\	.	16gg\	.	8Dn\	-ne	8b\	-ne	.	.
.	.	.	16ee\JJ	.	16gg\JJ	.	.	.	.	.	.	.
*	*	*	*Xtremolo	*	*Xtremolo	*	*	*	*	*	*	*
!	!	!	!LO:TX:t=P:problem=mixed beam	!	!LO:TX:t=P:problem=mixed beam	!	!	!	!	!	!	!
8C#X/	.	.	16e/LL	.	16g/LL	.	8C#/	Vo-	8a\	vo-	4ee\	4gg\
.	.	.	16e/	.	16g/	.	.	.	.	.	.	.
8AA/J	.	.	16ee\	.	16gg\	.	8AA/	-lun-	8a\	-lun-	.	.
.	.	.	16ee\JJ	.	16gg\JJ	.	.	.	.	.	.	.
8D/L	.	.	4ddT\	.	4ff#\	.	4D\	-ta-	4a\	-ta-	4dd\	4ff#\
8GG#X/J	.	.	.	.	.	.	.	.	.	.	.	.
!LO:TX:t=P:problem=mixed beam	!	!	!	!	!	!	!	!	!	!	!	!
16AA/LL	.	.	4cc#\	.	4ee\	.	4AA/	-tis	4a\	-tis	4a/	4ee\
16A\	.	.	.	.	.	.	.	.	.	.	.	.
16c#\	.	.	.	.	.	.	.	.	.	.	.	.
16A\JJ	.	.	.	.	.	.	.	.	.	.	.	.
!	!	!	!	!	!	!	!LO:LB:g=original	!	!	!	!	!
=19	=19	=19	=19	=19	=19	=19	=19	=19	=19	=19	=19	=19
8d\L	.	.	16dd\LL	.	16ff#\LL	.	4d\	bo-	4a\	bo-	8r	8dd\
.	.	.	16ff#\	.	16ddd\	.	.	.	.	.	.	.
8d\	.	.	16dd\	.	16ff#\	.	.	.	.	.	4dd\	4ff#\
.	.	.	16ff#\JJ	.	16ddd\JJ	.	.	.	.	.	.	.
8c#\	.	.	16dd\LL	.	16ff#\LL	.	4c#\	-ne	4a\	-ne	.	.
.	.	.	16ff#\	.	16ddd\	.	.	.	.	.	.	.
8c#\J	.	.	16dd\	.	16ff#\	.	.	.	.	.	4dd\	4ff#\
.	.	.	16ff#\JJ	.	16ddd\JJ	.	.	.	.	.	.	.
8B\L	.	.	16dd\LL	.	16ff#\LL	.	4B\	vo-	4a\	vo-	.	.
.	.	.	16ff#\	.	16ddd\	.	.	.	.	.	.	.
8B\	.	.	16dd\	.	16ff#\	.	.	.	.	.	4dd\	4ff#\
.	.	.	16ff#\JJ	.	16ddd\JJ	.	.	.	.	.	.	.
8F#\	.	.	16dd\LL	.	16ff#\LL	.	4F#\	-lun-	4dd\	-lun-	.	.
.	.	.	16ff#\	.	16ddd\	.	.	.	.	.	.	.
8F#\J	.	.	16dd\	.	16ff#\	.	.	.	.	.	8dd\	8ff#\
.	.	.	16ff#\JJ	.	16ddd\JJ	.	.	.	.	.	.	.
!	!	!	!	!	!	!	!	!	!	!	!LO:LB:g=original	!
=20	=20	=20	=20	=20	=20	=20	=20	=20	=20	=20	=20	=20
4G\	.	.	16dd\LL	.	16ee\LL	.	(>4G\	-ta-	4dd\	-ta-	4dd\	2eeT\
.	.	.	16ee\	.	16ddd\	.	.	.	.	.	.	.
.	.	.	16dd\	.	16ee\	.	.	.	.	.	.	.
.	.	.	16ee\JJ	.	16ddd\JJ	.	.	.	.	.	.	.
4A\	.	.	16cc#\LL	.	16ee\LL	.	4A\)	.	4cc#t\	.	4a/	.
.	.	.	16ee\	.	16ccc#\	.	.	.	.	.	.	.
.	.	.	16cc#\	.	16ee\	.	.	.	.	.	.	.
.	.	.	16ee\JJ	.	16ccc#\JJ	.	.	.	.	.	.	.
!	!	!	!	!	!	!	!	!	!LO:LB:g=original	!	!	!
4D/	.	.	4dd\	.	16ddd\LL	.	4D/	-tis	4dd\	-tis	4f#/	4dd\
.	.	.	.	.	16aa\	.	.	.	.	.	.	.
.	.	.	.	.	16ff#\	.	.	.	.	.	.	.
.	.	.	.	.	16aa\JJ	.	.	.	.	.	.	.
4d\	.	.	8ff#\L	.	16dd\LL	.	4d\	lau-	4ff#\	Lau-	4ff#\	4aa\
.	.	.	.	.	16ff#\	.	.	.	.	.	.	.
.	.	.	8aa\J	.	16aa\	.	.	.	.	.	.	.
.	.	.	.	.	16ddd\JJ	.	.	.	.	.	.	.
=21	=21	=21	=21	=21	=21	=21	=21	=21	=21	=21	=21	=21
4c#\	.	.	8ee\L	.	16a\LL	.	4c#\	-da-	4ee\	-da-	4ee\	4aa\
.	.	.	.	.	16cc#\	.	.	.	.	.	.	.
.	.	.	8aa\	.	16ee\	.	.	.	.	.	.	.
.	.	.	.	.	16aa\JJ	.	.	.	.	.	.	.
4d\	.	.	8ff#\	.	16a\LL	.	4d\	-mus	4ff#\	-mus	4ff#\	4aa\
.	.	.	.	.	16dd\	.	.	.	.	.	.	.
.	.	.	8aa\J	.	16ff#\	.	.	.	.	.	.	.
.	.	.	.	.	16aa\JJ	.	.	.	.	.	.	.
4A\	.	.	16ee\LL	.	16a\LL	.	4A\	te	4ee\	te	4ee\	4aa\
.	.	.	16a\	.	16cc#\	.	.	.	.	.	.	.
.	.	.	16cc#\	.	16ee\	.	.	.	.	.	.	.
.	.	.	16ee\JJ	.	16aa\JJ	.	.	.	.	.	.	.
4d\	.	.	8ff#\L	.	16a\LL	.	8d\	be-	8ff#\	be-	4dd\	4ff#\
.	.	.	.	.	16dd\	.	.	.	.	.	.	.
.	.	.	8aa\J	.	16ff#\	.	8d\	-ne-	8ff#\	-ne-	.	.
.	.	.	.	.	16aa\JJ	.	.	.	.	.	.	.
!	!	!	!	!	!LO:LB:g=original	!	!	!	!	!	!	!LO:LB:g=original
=22	=22	=22	=22	=22	=22	=22	=22	=22	=22	=22	=22	=22
4c#\	.	.	8ee\L	.	16a\LL	.	4c#\	-di-	4ee\	-di-	4a/	4ee\
.	.	.	.	.	16cc#\	.	.	.	.	.	.	.
.	.	.	8aa\	.	16ee\	.	.	.	.	.	.	.
.	.	.	.	.	16aa\JJ	.	.	.	.	.	.	.
4d\	.	.	8ff#\	.	16a\LL	.	8d\	-ci-	8ff#\	-ci-	4dd\	4ff#\
.	.	.	.	.	16dd\	.	.	.	.	.	.	.
.	.	.	8aa\J	.	16ff#\	.	8d\	-mus	8ff#\	-mus	.	.
.	.	.	.	.	16aa\JJ	.	.	.	.	.	.	.
8A\L	.	.	8ee\L	.	8ee\L|	.	4A\	te	4ee\	te	4a/	4ee\
16c#\L|	.	.	16cc#\L	.	(>16cc#\L	.	.	.	.	.	.	.
16d\JJ|	.	.	16dd\JJ	.	16dd\JJ)	.	.	.	.	.	.	.
8e\L	.	.	8ee\L	.	8ee\L	.	4r	.	4r	.	4r	4r
8f#\J	.	.	8ff#\J	.	8ff#\J	.	.	.	.	.	.	.
=23	=23	=23	=23	=23	=23	=23	=23	=23	=23	=23	=23	=23
4G#X\|	.	.	4g#X/	.	4g#X/	.	1r	.	1r	.	1r	1r
4A\|	.	.	4a/	.	4a/	.	.	.	.	.	.	.
!LO:LB:g=original	!	!	!LO:LB:g=original	!	!	!	!	!	!	!	!	!
8d\L	.	.	8dd\L	.	8dd\L	.	.	.	.	.	.	.
16c#\L	.	.	16cc#\L	.	16cc#\L	.	.	.	.	.	.	.
16B\JJ	.	.	16b\JJ	.	16b\JJ	.	.	.	.	.	.	.
!	!	!	!LO:TX:t=P:problem=mixed beam	!	!LO:TX:t=P:problem=mixed beam	!	!	!	!	!	!	!
8e\L	.	.	8ee\L	.	8ee\L	.	.	.	.	.	.	.
8E\J	.	.	8e/J	.	8e/J	.	.	.	.	.	.	.
=24	=24	=24	=24	=24	=24	=24	=24	=24	=24	=24	=24	=24
4A\	.	.	8a\L	.	16a\LL	.	4r	.	4r	.	2r	8r
.	.	.	.	.	16cc#\	.	.	.	.	.	.	.
.	.	.	8ee\	.	16ee\	.	.	.	.	.	.	8ee\L
.	.	.	.	.	16aa\JJ	.	.	.	.	.	.	.
4A\	.	.	8cc#\	.	16a\LL	.	4A\	Lau-	4cc#\	Lau-	.	8ee\
.	.	.	.	.	16cc#\	.	.	.	.	.	.	.
.	.	.	8ee\J	.	16ee\	.	.	.	.	.	.	8ee\J
.	.	.	.	.	16aa\JJ	.	.	.	.	.	.	.
4G#X\	.	.	8b\L	.	16e/LL	.	4G#X\	-da-	4b\	-da-	8r	4ee\
.	.	.	.	.	16g#X/	.	.	.	.	.	.	.
.	.	.	8ee\	.	16b/	.	.	.	.	.	8ee\L	.
.	.	.	.	.	16ee/JJ	.	.	.	.	.	.	.
4A\	.	.	8cc#\	.	16e/LL	.	4A\	-mus	4cc#\	-mus	8ee\	4r
.	.	.	.	.	16a/	.	.	.	.	.	.	.
.	.	.	8ee\J	.	16cc#/	.	.	.	.	.	8ee\J	.
.	.	.	.	.	16ee/JJ	.	.	.	.	.	.	.
=25	=25	=25	=25	=25	=25	=25	=25	=25	=25	=25	=25	=25
!	!	!	!LO:TX:t=P:problem=mixed beam	!	!	!	!	!	!	!	!	!
4E\	.	.	8g#X/L	.	16e/LL	.	4E\	te	4b\	te	4ee\	8r
.	.	.	.	.	16g#X/	.	.	.	.	.	.	.
.	.	.	8ee\	.	16b/	.	.	.	.	.	.	8ee\L
.	.	.	.	.	16dd/JJ	.	.	.	.	.	.	.
4A\	.	.	8cc#\	.	16e/LL	.	8A\	be-	8cc#\	be-	4r	8ee\
.	.	.	.	.	16a/	.	.	.	.	.	.	.
.	.	.	8ee\J	.	16cc#/	.	8A\	-ne-	8cc#\	-ne-	.	8ee\J
.	.	.	.	.	16ee/JJ	.	.	.	.	.	.	.
!	!	!	!	!	!	!	!LO:LB:g=original	!	!	!	!	!
4G#X\	.	.	8b\L	.	16e/LL	.	4G#X\	-di-	4b\	-di-	8r	4ee\
.	.	.	.	.	16g#X/	.	.	.	.	.	.	.
.	.	.	8ee\	.	16b/	.	.	.	.	.	16ee\LL	.
.	.	.	.	.	16dd/JJ	.	.	.	.	.	16ee\JJ	.
4A\	.	.	8cc#\	.	16a/LL	.	8A\	-ci-	8cc#\	-ci-	8ee\L	4r
.	.	.	.	.	16cc#/	.	.	.	.	.	.	.
.	.	.	8a\J	.	16ee/	.	8A\	-mus	8cc#\	-mus	8ee\J	.
.	.	.	.	.	16aa/JJ	.	.	.	.	.	.	.
=26	=26	=26	=26	=26	=26	=26	=26	=26	=26	=26	=26	=26
4E\	.	.	4b\	.	8gg#X\L	.	4E\	te	4b\	te	4ee\	0r
.	.	.	.	.	8ee\	.	.	.	.	.	.	.
4E\	.	.	4ee\	.	8ee\	.	4E\	te	4b\	te	4r	.
.	.	.	.	.	8ee\J	.	.	.	.	.	.	.
4D#X\	.	.	4ff#\	.	16ff#\LL	.	4D#X\	a-	4b\	ad-	2r	.
.	.	.	.	.	16aa\	.	.	.	.	.	.	.
.	.	.	.	.	16gg#X\	.	.	.	.	.	.	.
.	.	.	.	.	16ff#\JJ	.	.	.	.	.	.	.
4Dn\	.	.	4b\	.	16bb\LL	.	4Dn\	-do-	4b\	-o-	.	.
.	.	.	.	.	16aa\	.	.	.	.	.	.	.
.	.	.	.	.	16gg#X\	.	.	.	.	.	.	.
.	.	.	.	.	16ff#\JJ	.	.	.	.	.	.	.
=27	=27	=27	=27	=27	=27	=27	=27	=27	=27	=27	=27	=27
4C#/	.	.	8r	.	16ee\LL	.	4C#/	-ra-	4a\	-ra-	1r	.
.	.	.	.	.	16gg#X\	.	.	.	.	.	.	.
!	!	!	!LO:TX:t=P:problem=mixed beam	!	!	!	!	!	!	!	!	!
.	.	.	8a/L	.	16ff#\	.	.	.	.	.	.	.
.	.	.	.	.	16ee\JJ	.	.	.	.	.	.	.
4F#\	.	.	8dd\	.	16aa\LL	.	4F#\	-mus	4a\	-mus	.	.
.	.	.	.	.	16gg#\	.	.	.	.	.	.	.
.	.	.	8f#/J	.	16ff#\	.	.	.	.	.	.	.
.	.	.	.	.	16ee\JJ	.	.	.	.	.	.	.
!	!	!	!LO:TX:t=P:problem=mixed beam	!	!	!	!	!	!	!	!	!
4BB/	.	.	8g#X/L	.	16dd\LL	.	4BB/	te	4g#X\	te	.	.
.	.	.	.	.	16cc#\	.	.	.	.	.	.	.
.	.	.	8dd\	.	16dd\	.	.	.	.	.	.	.
.	.	.	.	.	16gg#X\JJ	.	.	.	.	.	.	.
4C#/	.	.	8cc#\	.	16aa\LL	.	4C#/	glo-	4a\	glo-	.	.
.	.	.	.	.	16gg#\	.	.	.	.	.	.	.
.	.	.	8aa\J	.	16ff#\	.	.	.	.	.	.	.
.	.	.	.	.	16ee\JJ	.	.	.	.	.	.	.
!	!	!	!	!	!LO:LB:g=original	!	!	!	!LO:LB:g=original	!	!	!
=28	=28	=28	=28	=28	=28	=28	=28	=28	=28	=28	=28	=28
!LO:TX:t=P:problem=mixed beam	!	!	!LO:TX:t=P:problem=mixed beam	!	!	!	!	!	!	!	!	!
8D/L	.	.	8b/L	.	8ff#\L	.	8D/	-ri-	8a\	-ri-	2r	2r
8BB/	.	.	8aa\	.	8aa\	.	8BB/	-fi-	8a\	-fi-	.	.
8E\	.	.	8b/	.	8b\	.	8E\	-ca-	8.g#X\	-ca-	.	.
8EE/J	.	.	8gg#X\J	.	8gg#X\J	.	8EE/	-mus	.	.	.	.
.	.	.	.	.	.	.	.	.	16g#\	-mus	.	.
!	!	!	!LO:TX:t=P:problem=mixed beam	!	!	!	!	!	!	!	!	!
4AA/	.	.	8aa\L	.	8aa\L	.	4AA/	te	4a\	te	4r	4r
.	.	.	(<16a/L	.	16cc#\L	.	.	.	.	.	.	.
.	.	.	16b/JJ)	.	16dd\JJ	.	.	.	.	.	.	.
8r	.	.	8cc#\L	.	8ee\L	.	4r	.	4r	.	8r	8r
!LO:TX:a:i:t=Solo	!	!	!	!	!	!	!	!	!	!	!	!
8D/	.	.	8dd\J	.	8ff#\J	.	.	.	.	.	16a/LL	16a/LL
.	.	.	.	.	.	.	.	.	.	.	16a/JJ	16a/JJ
=29	=29	=29	=29	=29	=29	=29	=29	=29	=29	=29	=29	=29
4AA/	.	.	8cc#\L	.	8ee\L	.	0r	.	0r	.	4a/	4a/
.	.	.	(>16a\L	.	16cc#\L	.	.	.	.	.	.	.
.	.	.	16b\JJ)	.	16dd\JJ	.	.	.	.	.	.	.
8r	.	.	8cc#\L	.	8ee\L	.	.	.	.	.	8r	8r
8D\	.	.	8dd\J	.	8ff#\J	.	.	.	.	.	16a/LL	16a/LL
.	.	.	.	.	.	.	.	.	.	.	16a/JJ	16a/JJ
8A\	.	.	8cc#\L	.	8ee\L	.	.	.	.	.	4a/	4a/
8r	.	.	(>16b\L	.	16dd\L	.	.	.	.	.	.	.
.	.	.	16a\JJ)	.	16cc#\JJ	.	.	.	.	.	.	.
.	.	.	8qqcc#/	.	8qqee/	.	.	.	.	.	.	.
8E\	.	.	8b\L	.	8dd\L	.	.	.	.	.	4r	4r
8r	.	.	16a\L	.	16cc#\L	.	.	.	.	.	.	.
.	.	.	16g#X\JJ	.	16b\JJ	.	.	.	.	.	.	.
=30	=30	=30	=30	=30	=30	=30	=30	=30	=30	=30	=30	=30
8A\	.	.	8ee\L	.	8cc#\L	.	.	.	.	.	1r	1r
8r	.	.	(>16dd\L	.	16b\L	.	.	.	.	.	.	.
.	.	.	16cc#\JJ)	.	16a\JJ	.	.	.	.	.	.	.
.	.	.	8qqee/	.	8qqcc#/	.	.	.	.	.	.	.
8E\	.	.	8dd\L	.	8b\L	.	.	.	.	.	.	.
8r	.	.	16cc#\L	.	16a\L	.	.	.	.	.	.	.
.	.	.	16b\JJ	.	16g#X\JJ	.	.	.	.	.	.	.
8A\L	.	.	8a/L	.	8a/L	.	.	.	.	.	.	.
8F#\	.	.	8f#/	.	8f#/	.	.	.	.	.	.	.
8D\	.	.	8d/	.	8d/	.	.	.	.	.	.	.
8E\J	.	.	8e/J	.	8e/J	.	.	.	.	.	.	.
=31	=31	=31	=31	=31	=31	=31	=31	=31	=31	=31	=31	=31
!LO:TX:t=P:problem=mixed beam	!	!	!LO:TX:t=P:problem=mixed beam	!	!LO:TX:t=P:problem=mixed beam	!	!	!	!	!	!	!
8AA/L	.	.	8A/L	.	8A/L	.	4A\	Gra-	4cc#\	Gtra-	2r	8r
!	!	!	!	!	!LO:TX:a:i:t=Tutti	!	!	!	!	!	!	!
8A\	.	.	8cc#\	.	8ee\	.	.	.	.	.	.	16ee\LL
.	.	.	.	.	.	.	.	.	.	.	.	16ee\JJ
8AA/	.	.	8cc#\	.	8ee\	.	8A\	-ti-	8cc#\	-ti-	.	8ee\L
8A\J	.	.	8cc#\J	.	8ee\J	.	8A\	-as	8cc#\	-as	.	8ee\J
!LO:TX:t=P:problem=mixed beam	!	!	!	!	!	!	!	!	!	!	!	!
*	*	*	*tremolo	*	*	*	*	*	*	*	*	*
8BB/L	.	.	8g#X/L	.	8ee\L	.	8.B\	a-	4dd\	a-	8r	4ee\
8B\	.	.	8g#/	.	8ee\	.	.	.	.	.	16ee\LL	.
.	.	.	.	.	.	.	16B\	-gi-	.	.	16ee\JJ	.
8BB/	.	.	8g#/	.	8ee\	.	4B\	-mus	8dd\	-gi-	8ee\L	4ryy
8B\J	.	.	8g#/J	.	8ee\J	.	.	.	8dd\	-mus	8ee\J	.
*	*	*	*Xtremolo	*	*	*	*	*	*	*	*	*
!	!	!	!	!	!	!	!LO:LB:g=original	!	!	!	!	!
=32	=32	=32	=32	=32	=32	=32	=32	=32	=32	=32	=32	=32
!LO:TX:t=P:problem=mixed beam	!	!	!	!	!	!	!	!	!	!	!	!
8C#/L	.	X 6	8a\L	.	16ee\LL	.	4c#\	a-	4ee\	a-	4ee\	8r
.	.	.	.	.	16cc#\	.	.	.	.	.	.	.
8c#\	.	.	8ee\	.	16b\	.	.	.	.	.	.	16ee\LL
.	.	.	.	.	16a\JJ	.	.	.	.	.	.	16ee\JJ
8D/	.	.	8ff#\	.	8aa\L	.	8d\	-gi-	8ff#\	-gi-	8r	8ee\L
8d\J	.	.	8ff#\J	.	8aa\J	.	8d\	-mus	8ff#\	-mus	8ee\	8ee\J
!	!	!	!	!	!	!	!	!	!	!	!LO:LB:g=original	!
8e\L	.	X #_	4bT\	.	4gg#Xt\	.	4e\	ti-	4b\	ti-	8ee\L	4ee\
8E\	.	.	.	.	.	.	.	.	.	.	16ee\L	.
.	.	.	.	.	.	.	.	.	.	.	16ee\JJ	.
8G#X\	.	.	4b\	.	4gg#\	.	4E\	-bi	4b\	-bi	4ee\	4r
8E\J	.	X X	.	.	.	.	.	.	.	.	.	.
!LO:LB:g=original	!	!	!LO:LB:g=original	!	!	!	!	!	!	!	!	!
=33	=33	=33	=33	=33	=33	=33	=33	=33	=33	=33	=33	=33
4.A\	.	.	8r	.	8r	.	4.A\	pro-	8r	.	4a/	4ee\
.	.	.	16a/LL	.	(>16cc#\LL	.	.	.	16cc#\LL	prop-	.	.
.	.	.	16b/JJ	.	16dd\JJ)	.	.	.	16dd\JJ	.	.	.
.	.	.	8cc#\L	.	8ee\L	.	.	.	8ee\	.	4r	4r
8d\	.	.	8dd\J	.	8ff#\J	.	8d\	-pter	8ff#\	-ter	.	.
4.G#X\	.	X 5	8b/L	.	8dd\L	.	4.G#X\	ma-	8dd\L	mag-	2r	2r
.	.	.	16g#X/L	.	(>16b\L	.	.	.	16b\L	.	.	.
.	.	.	16a/JJ	.	16cc#\JJ)	.	.	.	16cc#\JJ	.	.	.
.	.	.	8b\L	.	8dd\L	.	.	.	8dd\L	.	.	.
8c#\	.	.	8cc#\J	.	8ee\J	.	8c#\	-gnam	8ee\J	.	.	.
=34	=34	=34	=34	=34	=34	=34	=34	=34	=34	=34	=34	=34
8r	.	.	8ee\	.	8cc#\L	.	8r	.	8cc#\L	.	0r	0r
16F#\LL	.	X 5	4ee\	.	(>16a\L	.	16F#\LL	prop-	16a\L	.	.	.
16G#X\JJ	.	.	.	.	16b\JJ)	.	16G#X\JJ	.	16b\JJ	.	.	.
8A\L	.	.	.	.	8cc#\L	.	8A\	.	8cc#\L	.	.	.
8B\J	.	.	8dd\	.	8dd\J	.	8B\	-ter	8dd\J	.	.	.
8G#X\L	.	.	8dd\	.	8b/L	.	8G#X\L	mag-	8b\L	.	.	.
16E\L	.	X 5	4dd\	.	16g#X/L	.	16E\L	.	16g#X\L	.	.	.
16F#\JJ	.	.	.	.	16a/JJ	.	16F#\JJ	.	16a\JJ	.	.	.
8G#\L	.	.	.	.	8b\L	.	8G#\	.	8b\	.	.	.
8A\J	.	.	8cc#\	.	8cc#\J	.	8A\	-nam	8cc#\	-nam	.	.
!	!	!	!	!	!	!	!	!	!LO:LB:g=original	!	!	!
=35	=35	=35	=35	=35	=35	=35	=35	=35	=35	=35	=35	=35
!	!	!	!	!	!LO:TX:t=P:problem=mixed beam	!	!	!	!	!	!	!
8F#\L	.	.	4.dd\	.	8a/L	.	8F#\L	glo-	4a\	glo-	.	.
16D\L	.	.	.	.	16ff#\L	.	16D\L	.	.	.	.	.
16E\JJ	.	.	.	.	16gg#X\JJ	.	16E\JJ	.	.	.	.	.
16F#\LL	.	.	.	.	16aa\LL	.	16F#\LL	.	8dd\	-ri-	.	.
16E\	.	.	.	.	16gg#X\	.	16E\	.	.	.	.	.
16F#\	.	.	8dd\	.	16aa\	.	16F#\	.	8dd\	-am	.	.
16G#X\JJ	.	.	.	.	16bb\JJ	.	16G#X\JJ	.	.	.	.	.
*	*	*reverse	*	*	*	*	*	*	*	*	*	*
!	!	!	!	!	!LO:LB:g=original	!	!	!	!	!	!	!
8A\L	.	X 3#	8cc#\L	.	8ee\L	.	8A\L	.	8cc#\L	glo-	.	.
8G#\	.	.	8b\	.	8ee\	.	8G#\	.	8b\	.	.	.
8F#\	.	.	8a\	.	8ee\	.	8F#\	.	8a\	.	.	.
8E\J	.	.	8g#X\J	.	8ee\J	.	8E\J	.	8g#X\J	.	.	.
=36	=36	=36	=36	=36	=36	=36	=36	=36	=36	=36	=36	=36
8F#\L	.	X 3_	4.a/	.	8aa\L	.	8F#\L	.	4a\	.	4r	4r
8E\	.	.	.	.	8gg#X\	.	8E\J	.	.	.	.	.
8D\	.	.	.	.	8ff#\	.	8D/	-ri-	8a\	-ri-	8r	8r
8C#\J	.	.	8a/	.	8ee\J	.	8C#/	-am	8a\	-am	8ee\	8aa\
!	!	!	!	!	!	!	!LO:LB:g=original	!	!	!	!	!
4D\	.	X X	8a/L	.	8ff#\L	.	(>4D\	tu-	4f#/	tu-	4ff#\	4aa\
.	.	.	8f#/	.	8dd\	.	.	.	.	.	.	.
4E\	.	.	8g#X/	.	8b\	.	4E\)	.	4g#X/	.	4ee\	4gg#Xt\
.	.	.	8b/J	.	8gg#X\J	.	.	.	.	.	.	.
!	!	!	!	!	!	!	!	!	!	!	!	!LO:LB:g=original
=37	=37	=37	=37	=37	=37	=37	=37	=37	=37	=37	=37	=37
4AA/	.	.	8cc#\L	.	8aa\L	.	4AA/	-am	8a\	-am	4ee\	4aa\
.	.	.	(>16a\L	.	16cc#\L|	.	.	.	16cc#\	pro-	.	.
.	.	.	16b\JJ)	.	16dd\JJ|	.	.	.	16dd\	-pter	.	.
8r	.	.	8cc#\L	.	8ee\L|	.	8r	.	8ee\	ma-	8r	8r
8A\	.	6 4	8dd\J	.	8ff#\J|	.	16A\	pro-	8ff#\	.	16a/LL	16a/LL
.	.	.	.	.	.	.	16A\	-pter	.	.	16a/JJ	16a/JJ
4AA/	.	.	8cc#\L	.	8ee\L	.	4A\	ma-	8ee\L	-gnam	4a/	4a/
.	.	.	16a\L	.	16cc#\L	.	.	.	16cc#\L	.	.	.
.	.	.	16b\JJ	.	16dd\JJ	.	.	.	16dd\JJ	.	.	.
8r	.	.	8cc#\L	.	8ee\L	.	4A\	-gnam	8ee\L	glo-	8r	8r
8A\	.	.	8dd\J	.	8ff#\J	.	.	.	8ff#\J	.	16a/LL	16a/LL
.	.	.	.	.	.	.	.	.	.	.	16a/JJ	16a/JJ
=38	=38	=38	=38	=38	=38	=38	=38	=38	=38	=38	=38	=38
8A\	.	.	8cc#\L	.	8ee\L	.	8A\	pro-	8ee\L	.	4a/	4a/
8r	.	.	(>16b\L	.	16dd\L	.	8r	.	(>16dd\L	.	.	.
.	.	.	16a\JJ)	.	16cc#\JJ	.	.	.	16cc#\JJ)	.	.	.
.	.	.	8qqcc#/	.	8qee/	.	.	.	8qee/	.	.	.
*	*	*Xreverse	*	*	*	*	*	*	*	*	*	*
8E\	.	X 5#	8b\L	.	8dd\L	.	8E\	-pter	8dd\L	.	4r	4r
8r	.	.	(>16a\L	.	16cc#\L	.	8r	.	(>16cc#\L	.	.	.
.	.	.	16g#X\JJ)	.	16b\JJ	.	.	.	16b\JJ)	.	.	.
.	.	.	.	.	8qdd/	.	.	.	8qdd/	.	.	.
8A\	.	.	8ee\L	.	8cc#\L	.	8A\	ma-	8cc#\L	.	2r	2r
8r	.	.	(>16dd\L	.	16b\L	.	8r	.	(>16b\L	.	.	.
.	.	.	16cc#\JJ)	.	16a\JJ	.	.	.	16a\JJ)	.	.	.
.	.	.	8qqee/	.	8qcc#/	.	.	.	8qqcc#/	.	.	.
8E\	.	X #	8dd\L	.	8b\L	.	8E\	-gnam	8b\L	.	.	.
8r	.	.	16cc#\L	.	16a\L	.	8r	.	(>16a\L	.	.	.
.	.	.	16b\JJ	.	16g#X\JJ	.	.	.	16g#X\JJ)	.	.	.
=39	=39	=39	=39	=39	=39	=39	=39	=39	=39	=39	=39	=39
8A\L	.	.	8cc#\L	.	8a/L	.	8A\	glo-	8a\	.	2r	2r
8F#\	.	6 5	8a\J	.	8e/	.	16F#\	-ri-	16a\	-ri-	.	.
.	.	.	.	.	.	.	16F#\	-am	16a\	-am	.	.
8D\	.	X #	8d/L	.	8d/	.	(>8D\L	tu-	4g#Xt\	tu-	.	.
8E\J	.	.	8e/J	.	8e/J	.	8E\J)	.	.	.	.	.
!	!	!	!LO:TX:t=P:problem=mixed beam	!	!LO:TX:t=P:problem=mixed beam	!	!	!	!	!	!	!
4AA/	.	.	8A/L	.	8A/L	.	4AA/	-am	4a\	-am	4r	4r
.	.	.	8aa\	.	8aa\	.	.	.	.	.	.	.
8r	.	.	8b\	.	8b/	.	4r	.	4r	.	8r	8r
8E\	.	X #	8gg#X\J	.	8gg#X\J	.	.	.	.	.	8ee\	8ee\
=40	=40	=40	=40	=40	=40	=40	=40	=40	=40	=40	=40	=40
4AA/	.	.	4aa 4cc# 4e 4A/	.	4aa 4cc# 4e 4A/	.	1r	.	1r;>	.	4ee\	4ee\
4r	.	.	4r	.	4r	.	.	.	.	.	4r	4r
!	!	!	!	!	!LO:TX:b:i:t=Verte Laudamus	!	!	!	!	!	!	!
2r	.	.	2r	.	2r	.	.	.	.	.	2r	2r
!LO:LB:g=original	!	!	!LO:LB:g=original	!	!LO:PB:g=original	!	!	!	!LO:LB:g=original	!	!	!
=41||;;	=41||	=41||;;	=41||;	=41||	=41||;	=41||	=41||	=41||	=41||	=41||	=41||	=41||;
*k[f#c#g#]	*	*	*k[f#c#g#]	*	*k[f#c#g#]	*	*	*	*k[f#c#g#]	*	*k[f#c#g#]	*k[f#c#g#]
*M3/4	*	*	*M3/4	*	*M3/4	*	*M3/4	*	*M3/4	*	*M3/4	*M3/4
!LO:TX:b:i:t=Domine	!	!	!	!	!	!	!	!	!	!	!	!
!LO:TX:a:i:t=Solo	!	!	!LO:TX:b:i:t=Domine	!	!LO:TX:b:i:t=Domine	!	!	!	!	!	!	!
!LO:TX:a:i:t=andante	!	!	!LO:TX:a:i:t=moderato	!	!LO:TX:a:i:t=moderato	!	!LO:TX:a:i:t=Domine Tacet	!	!	!	!LO:TX:a:i:t=Tacet\nDomine et Quitollis	!LO:TX:a:i:t=Domine et Quitollis Tacet
!	!	!	!	!	!	!	!	!	!LO:TX:a:t=P:problem=w źródle kolejność i wysokość znaków przykluczowych - f# cc# g#	!	!	!
4A\	.	.	4aa\	.	4aa\	.	2.ryy	.	0.r	.	2.ryy	2.ryy
4B\	.	.	4gg#\	.	4gg#\	.	.	.	.	.	.	.
4c#\	.	.	4aa\	.	4aa\	.	.	.	.	.	.	.
=42	=42	=42	=42	=42	=42	=42	=42	=42	=42	=42	=42	=42
4G#\	.	.	8bb\L	.	8bb\L	.	2.ryy	.	.	.	2.ryy	2.ryy
.	.	.	8cc#\J	.	8cc#\J	.	.	.	.	.	.	.
.	.	.	8qqcc#/	.	8qqcc#/	.	.	.	.	.	.	.
*	*	*	*2\right	*	*	*	*	*	*	*	*	*
4A\	.	.	2dd\	.	2dd\	.	.	.	.	.	.	.
4B\	.	.	.	.	.	.	.	.	.	.	.	.
=43	=43	=43	=43	=43	=43	=43	=43	=43	=43	=43	=43	=43
*	*	*	*	*	*Xtuplet	*	*	*	*	*	*	*
!	!	!	!LO:TUP:a:problem=klamra łukowa, kropka zamiast numeru	!	!LO:TUP:a:problem=klamra łukowa	!	!	!	!	!	!	!
4A\	.	.	12cc#'\L	.	12cc#\L|	.	2.ryy	.	.	.	2.ryy	2.ryy
.	.	.	12a'\	.	12a\|	.	.	.	.	.	.	.
.	.	.	12b'\J	.	12b\J|	.	.	.	.	.	.	.
!	!	!	!LO:TUP:a:problem=klamra łukowa, kropka zamiast numeru	!	!	!	!	!	!	!	!	!
*	*	*	*	*	*Xtuplet	*	*	*	*	*	*	*
4r	.	.	12cc#'\L	.	12cc#\L|	.	.	.	.	.	.	.
.	.	.	12dd'\	.	12dd\|	.	.	.	.	.	.	.
.	.	.	12ee'\J	.	12ee\J|	.	.	.	.	.	.	.
!	!	!	!LO:TX:t=P:problem=mixed beam	!	!LO:TX:t=P:problem=mixed beam	!	!	!	!	!	!	!
4D\	.	.	8.ff#\L	.	8.ff#\L	.	.	.	.	.	.	.
.	.	.	16f#/Jk	.	16f#/Jk	.	.	.	.	.	.	.
=44	=44	=44	=44	=44	=44	=44	=44	=44	=44	=44	=44	=44
4E\	.	X #	4g#/	.	4g#/	.	2.ryy	.	.	.	2.ryy	2.ryy
4AA/	.	.	4a/	.	4a/	.	.	.	.	.	.	.
4r	.	.	4r	.	4r	.	.	.	.	.	.	.
=45	=45	=45	=45	=45	=45	=45	=45	=45	=45	=45	=45	=45
!	!	!	!LO:TX:t=P:problem=mixed beam	!	!	!	!	!	!	!	!	!
4AA/	.	.	8.a/L	.	8.cc#\L	.	2.ryy	.	0.r	.	2.ryy	2.ryy
.	.	.	16aa\Jk	.	16aa\Jk	.	.	.	.	.	.	.
4C#/	.	.	4a/	.	4cc#\	.	.	.	.	.	.	.
4AA/	.	.	4a/	.	4cc#\	.	.	.	.	.	.	.
=46	=46	=46	=46	=46	=46	=46	=46	=46	=46	=46	=46	=46
.	.	.	8qqb/	.	8qqdd/	.	.	.	.	.	.	.
4E\	.	.	4a/	.	4cc#\	.	2.ryy	.	.	.	2.ryy	2.ryy
4EE/	.	.	4g#/	.	4b\	.	.	.	.	.	.	.
4G#\	.	.	[>4ee\	.	[>4ee\	.	.	.	.	.	.	.
=47	=47	=47	=47	=47	=47	=47	=47	=47	=47	=47	=47	=47
*2\right	*	*	*	*	*	*	*	*	*	*	*	*
2F#\	.	.	4ee\]	.	4ee\]	.	2.ryy	.	.	.	2.ryy	2.ryy
!	!	!	!LO:TUP:a:problem=klamra łukowa, kropka zamiast numeru	!	!	!	!	!	!	!	!	!
*	*	*	*	*	*tuplet	*	*	*	*	*	*	*
!	!	!	!	!	!LO:TUP:a:problem=klamra łukowa, kropka zamiast numeru	!	!	!	!	!	!	!
.	.	.	12dd#X\L	.	12dd#X\L	.	.	.	.	.	.	.
.	.	.	12cc#\	.	12cc#\	.	.	.	.	.	.	.
.	.	.	12b\J	.	12b\J	.	.	.	.	.	.	.
!	!	!	!LO:TUP:b:problem=klamra łukowa, kropka zamiast numeru	!	!LO:TUP:b:problem=klamra łukowa, kropka zamiast numeru	!	!	!	!	!	!	!
4BB/	.	.	12a/L	.	12a/L	.	.	.	.	.	.	.
.	.	.	12g#/	.	12g#/	.	.	.	.	.	.	.
.	.	.	12f#/J	.	12f#/J	.	.	.	.	.	.	.
=48	=48	=48	=48	=48	=48	=48	=48	=48	=48	=48	=48	=48
4E\	.	.	4g#/	.	4g#/	.	2.ryy	.	.	.	2.ryy	2.ryy
.	.	.	8qqf#/	.	8qf#/	.	.	.	.	.	.	.
4e\	.	.	4e/	.	4e/	.	.	.	.	.	.	.
4c#\	.	.	[<4aa\	.	[>4aa\	.	.	.	.	.	.	.
=49	=49	=49	=49	=49	=49	=49	=49	=49	=49	=49	=49	=49
2B\	.	.	4aa\]	.	4aa\]	.	2.ryy	.	0.r	.	2.ryy	2.ryy
!	!	!	!LO:TUP:a:problem=klamra łukowa, kropka zamiast numeru	!	!LO:TUP:a:problem=klamra łukowa, kropka zamiast numeru	!	!	!	!	!	!	!
.	.	.	12gg#\L	.	12gg#\L	.	.	.	.	.	.	.
.	.	.	12ff#\	.	12ff#\	.	.	.	.	.	.	.
.	.	.	12ee\J	.	12ee\J	.	.	.	.	.	.	.
*	*	*	*Xtuplet	*	*	*	*	*	*	*	*	*
!	!	!	!	!	!LO:TUP:a:problem=klamra łukowa, kropka zamiast numeru	!	!	!	!	!	!	!
4E\	.	.	12ddn\L	.	12ddn\L	.	.	.	.	.	.	.
.	.	.	12cc#\	.	12cc#\	.	.	.	.	.	.	.
.	.	.	12b\J	.	12b\J	.	.	.	.	.	.	.
=50	=50	=50	=50	=50	=50	=50	=50	=50	=50	=50	=50	=50
!	!	!	!	!	!LO:TUP:a:problem=klamra łukowa, kropka zamiast numeru	!	!	!	!	!	!	!
4A\	.	.	8a\L	.	24cc#\LL	.	2.ryy	.	.	.	2.ryy	2.ryy
.	.	.	.	.	24b\	.	.	.	.	.	.	.
.	.	.	.	.	24a\JJ	.	.	.	.	.	.	.
.	.	.	8ee\	.	8aa\	.	.	.	.	.	.	.
4C#/	.	.	8cc#\	.	8r	.	.	.	.	.	.	.
.	.	.	8ee\	.	8aa\	.	.	.	.	.	.	.
4C#/	.	.	8a\	.	8r	.	.	.	.	.	.	.
.	.	.	8ee\J	.	8aa\	.	.	.	.	.	.	.
=51	=51	=51	=51	=51	=51	=51	=51	=51	=51	=51	=51	=51
!	!	!	!	!	!LO:TUP:a:problem=klamra łukowa, kropka zamiast numeru	!	!	!	!	!	!	!
4D\	.	.	8r	.	24ff#\LL	.	2.ryy	.	.	.	2.ryy	2.ryy
.	.	.	.	.	24ee\	.	.	.	.	.	.	.
.	.	.	.	.	24dd\JJ	.	.	.	.	.	.	.
.	.	.	8ff#\L	.	8aa\	.	.	.	.	.	.	.
4D\	.	.	8dd\	.	8r	.	.	.	.	.	.	.
.	.	.	8ff#\	.	8aa\	.	.	.	.	.	.	.
4D\	.	.	8a\	.	8r	.	.	.	.	.	.	.
.	.	.	8ff#\J	.	8aa\	.	.	.	.	.	.	.
=52	=52	=52	=52	=52	=52	=52	=52	=52	=52	=52	=52	=52
2AA/	.	.	(>16aa\KL	.	(>16ccc#\KL	.	2.ryy	.	.	.	2.ryy	2.ryy
.	.	.	8.ff#\J)	.	8.aa\)	.	.	.	.	.	.	.
.	.	.	(>16ee\KL	.	(>16gg#\K	.	.	.	.	.	.	.
.	.	.	8.dd\J)	.	8.ff#\)	.	.	.	.	.	.	.
4r	.	.	(>16cc#\KL	.	(>16ee\K	.	.	.	.	.	.	.
.	.	.	8.b\J)	.	8.dd\J)	.	.	.	.	.	.	.
!	!	!	!	!	!LO:LB:g=original	!	!	!	!	!	!	!
=53	=53	=53	=53	=53	=53	=53	=53	=53	=53	=53	=53	=53
!	!	!	!	!	!LO:TUP:a:problem=klamra łukowa, kropka zamiast numeru	!	!	!	!	!	!	!
4A\	.	.	4a/	.	12cc#\L	.	2.ryy	.	0.r	.	2.ryy	2.ryy
.	.	.	.	.	12b\	.	.	.	.	.	.	.
.	.	.	.	.	12a\J	.	.	.	.	.	.	.
.	.	.	(<8qqa/	.	.	.	.	.	.	.	.	.
*	*	*	*	*	*2\right	*	*	*	*	*	*	*
4e\	.	.	2g#/)	.	2bT\	.	.	.	.	.	.	.
4E\	.	.	.	.	.	.	.	.	.	.	.	.
!	!	!	!LO:LB:g=original	!	!	!	!	!	!	!	!	!
=54	=54	=54	=54	=54	=54	=54	=54	=54	=54	=54	=54	=54
!	!	!	!	!LO:DY:a:t=p&colon;	!LO:TUP:a:problem=klamra łukowa, kropka zamiast numeru	!LO:DY:a	!	!	!	!	!	!
4A\	.	.	8a\L	p	24a\LL	p	2.ryy	.	.	.	2.ryy	2.ryy
.	.	.	.	.	24cc#\	.	.	.	.	.	.	.
.	.	.	.	.	24ee\JJ	.	.	.	.	.	.	.
.	.	.	8ee\	.	8aa\	.	.	.	.	.	.	.
!	!LO:DY:a:t=pia	!	!	!	!	!	!	!	!	!	!	!
4C#/	p	.	8cc#\	.	8r	.	.	.	.	.	.	.
.	.	.	8ee\	.	8aa\	.	.	.	.	.	.	.
4C#/	.	.	8a\	.	8r	.	.	.	.	.	.	.
.	.	.	8ee\J	.	8aa\	.	.	.	.	.	.	.
=55	=55	=55	=55	=55	=55	=55	=55	=55	=55	=55	=55	=55
!	!	!	!	!	!LO:TUP:a:problem=klamra łukowa, kropka zamiast numeru	!	!	!	!	!	!	!
4D\	.	.	8r	.	24ff#\LL	.	2.ryy	.	.	.	2.ryy	2.ryy
.	.	.	.	.	24ee\	.	.	.	.	.	.	.
.	.	.	.	.	24dd\JJ	.	.	.	.	.	.	.
.	.	.	8ff#\L	.	8aa\	.	.	.	.	.	.	.
4D\	.	.	8dd\	.	8r	.	.	.	.	.	.	.
.	.	.	8ff#\	.	8aa\	.	.	.	.	.	.	.
4D\	.	.	8a\	.	8r	.	.	.	.	.	.	.
.	.	.	8ff#\J	.	8aa\	.	.	.	.	.	.	.
=56	=56	=56	=56	=56	=56	=56	=56	=56	=56	=56	=56	=56
!	!LO:DY:a:t=f&colon;	!	!	!LO:DY:a:t=for	!	!LO:DY:a	!	!	!	!	!	!
2AA/	f	.	(>16aa\KL	f	(>16ccc#\KL	f	2.ryy	.	.	.	2.ryy	2.ryy
.	.	.	8.ff#\J)	.	8.aa\J)	.	.	.	.	.	.	.
.	.	.	(>16ee\KL	.	(>16gg#\KL	.	.	.	.	.	.	.
.	.	.	8.dd\J)	.	8.ff#\J)	.	.	.	.	.	.	.
4r	.	.	(>16cc#\KL	.	(>16ee\KL	.	.	.	.	.	.	.
.	.	.	8.b\J)	.	8.dd\J)	.	.	.	.	.	.	.
=57	=57	=57	=57	=57	=57	=57	=57	=57	=57	=57	=57	=57
!	!	!	!	!	!LO:TUP:a:problem=klamra łukowa, kropka zamiast numeru	!	!	!	!	!	!	!
4A\	.	.	4a/	.	12cc#\L	.	2.ryy	.	2.r	.	2.ryy	2.ryy
.	.	.	.	.	12b\	.	.	.	.	.	.	.
.	.	.	.	.	12a\J	.	.	.	.	.	.	.
.	.	.	8qqa/	.	.	.	.	.	.	.	.	.
4e\	.	.	2g#t/	.	2bT\	.	.	.	.	.	.	.
4E\	.	.	.	.	.	.	.	.	.	.	.	.
=58	=58	=58	=58	=58	=58	=58	=58	=58	=58	=58	=58	=58
!	!	!	!	!	!	!	!	!	!LO:TX:t=P:problem=brak taktu	!	!	!
8.A\L	.	.	8.a/L	.	8.a/L	.	2.ryy	.	2.ryy	.	2.ryy	2.ryy
16E\Jk	.	.	16e/Jk	.	16e/Jk	.	.	.	.	.	.	.
4AA/	.	.	4A/	.	4A;>/	.	.	.	.	.	.	.
!LO:TX:t=P:problem=2 fermaty - jedna na górze, druga na dole	!	!	!	!	!	!	!	!	!	!	!	!
4r;;	.	.	4r	.	4r	.	.	.	.	.	.	.
=59	=59	=59	=59	=59	=59	=59	=59	=59	=59	=59	=59	=59
!	!LO:DY:a:t=p&colon;	!	!	!LO:DY:a:t=p&colon;	!	!LO:DY:a:t=p&colon;	!	!	!	!	!	!
4A\	p	.	4cc#\	p	4aa\	p	2.ryy	.	4a\	Do-	2.ryy	2.ryy
4B\	.	.	4dd\	.	4gg#t\	.	.	.	4g#\	-mi-	.	.
4c#\	.	.	4ee\	.	4aa\	.	.	.	4a\	-ne	.	.
=60	=60	=60	=60	=60	=60	=60	=60	=60	=60	=60	=60	=60
4G#\	.	.	4dd\	.	8bb\L	.	2.ryy	.	4b\	De-	2.ryy	2.ryy
.	.	.	.	.	8cc#\J	.	.	.	.	.	.	.
.	.	.	.	.	8qqcc#/	.	.	.	.	.	.	.
4A\	.	X 6	4f#/	.	2ddT\	.	.	.	4cc#t\	.	.	.
4B\	.	X 5\	4g#/	.	.	.	.	.	4dd\	-us	.	.
!LO:LB:g=original	!	!	!	!	!	!	!	!	!	!	!	!
=61	=61	=61	=61	=61	=61	=61	=61	=61	=61	=61	=61	=61
*	*	*	*	*	*Xtuplet	*	*	*	*	*	*	*
!	!	!	!	!	!	!	!	!	!LO:TUP:a:problem=klamra łukowa, kropka zamiast numeru	!	!	!
4A\	.	.	2e/	.	12cc#\L|	.	2.ryy	.	12cc#\L	Rex	2.ryy	2.ryy
.	.	.	.	.	12a\|	.	.	.	12a\	.	.	.
.	.	.	.	.	12b\J|	.	.	.	12b\J	.	.	.
!	!	!	!	!	!	!	!	!	!LO:TUP:a:problem=klamra łukowa, kropka zamiast numeru	!	!	!
4r	.	.	.	.	12cc#\L|	.	.	.	12cc#\L	.	.	.
.	.	.	.	.	12dd\|	.	.	.	12dd\	.	.	.
.	.	.	.	.	12ee\J|	.	.	.	12ee\J	.	.	.
!	!	!	!	!	!LO:TX:t=P:problem=mixed beam	!	!	!	!	!	!	!
4D\	.	.	4a/	.	8.ff#\L	.	.	.	8.ff#\	.	.	.
.	.	.	.	.	16f#/Jk	.	.	.	16a\	ce-	.	.
=62	=62	=62	=62	=62	=62	=62	=62	=62	=62	=62	=62	=62
4E\	.	.	4d/	.	4g#/	.	2.ryy	.	4g#\	-les-	2.ryy	2.ryy
4AA/	.	.	4c#/	.	4a/	.	.	.	4a\	-tis	.	.
4r	.	.	4r	.	4r	.	.	.	4r	.	.	.
=63	=63	=63	=63	=63	=63	=63	=63	=63	=63	=63	=63	=63
!	!	!	!LO:TX:t=P:problem=mixed beam	!	!	!	!	!	!	!	!	!
*	*	*	*	*	*tuplet	*	*	*	*	*	*	*
!	!	!	!	!	!LO:TUP:a:problem=klamra łukowa, kropka zamiast numeru	!	!	!	!	!	!	!
4A\	.	.	8e/L	.	12cc#\L	.	2.ryy	.	4cc#\	De-	2.ryy	2.ryy
.	.	.	.	.	12b\	.	.	.	.	.	.	.
.	.	.	8ee\J	.	.	.	.	.	.	.	.	.
.	.	.	.	.	12a\J	.	.	.	.	.	.	.
4A\	.	.	8r	.	(>4cc#\	.	.	.	(>4cc#\	-us	.	.
.	.	.	8ee\	.	.	.	.	.	.	.	.	.
4A\	.	.	8r	.	4dd#X\)	.	.	.	4dd#X\)	.	.	.
.	.	.	8b\	.	.	.	.	.	.	.	.	.
!	!	!	!	!	!LO:LB:g=original	!	!	!	!	!	!	!
=64	=64	=64	=64	=64	=64	=64	=64	=64	=64	=64	=64	=64
4G#\	.	X 6	4b\	.	8ee\L	.	2.ryy	.	4ee\	pa-	2.ryy	2.ryy
.	.	.	.	.	8b\J	.	.	.	.	.	.	.
4G#\	.	.	4b\	.	8r	.	.	.	4b\	-ter	.	.
.	.	.	.	.	8ee\	.	.	.	.	.	.	.
4G#\	.	.	4b\	.	8r	.	.	.	[>4ee\	pa-	.	.
.	.	.	.	.	8ee\	.	.	.	.	.	.	.
=65	=65	=65	=65	=65	=65	=65	=65	=65	=65	=65	=65	=65
.	.	.	.	.	8qqff#/	.	.	.	.	.	.	.
2F#\	.	.	2a/	.	4ee\	.	2.ryy	.	4ee\]	.	2.ryy	2.ryy
.	.	.	.	.	(>16dd#X\KL	.	.	.	(>16dd#X\KL	-ter	.	.
.	.	.	.	.	8.cc#\J)	.	.	.	8.cc#\J)	.	.	.
4BB/	.	.	4f#/	.	(<16b/KL	.	.	.	(>16b\KL	om-	.	.
.	.	.	.	.	8.a/J)	.	.	.	8.a\J)	.	.	.
=66	=66	=66	=66	=66	=66	=66	=66	=66	=66	=66	=66	=66
.	.	.	.	.	.	.	.	.	8qb/	.	.	.
4E\	.	.	4f#/	.	8.a/L	.	2.ryy	.	8.a\	-ni-	2.ryy	2.ryy
.	.	.	.	.	16f#/Jk	.	.	.	16g#\	-po-	.	.
!	!	!	!LO:TX:t=P:problem=mixed beam	!	!	!	!	!	!	!	!	!
!	!	!	!	!	!LO:TX:t=P:problem=mixed beam	!	!	!	!	!	!	!
8r	.	.	8e/L	.	8g#/L	.	.	.	4g#\	-tens	.	.
8E\L	.	.	8gg#\J	.	8bb\J	.	.	.	.	.	.	.
8G#\	.	.	8r	.	8r	.	.	.	8b\	De-	.	.
8E\J	.	.	8g#/	.	8b\	.	.	.	8e/	-us	.	.
!	!	!	!	!	!	!	!	!	!LO:LB:g=original	!	!	!
=67	=67	=67	=67	=67	=67	=67	=67	=67	=67	=67	=67	=67
!	!	!	!LO:TX:t=P:problem=mixed beam	!	!	!	!	!	!	!	!	!
4A\	.	.	8e/L	.	4.cc#\	.	2.ryy	.	4.cc#\	Pa-	2.ryy	2.ryy
.	.	.	8ee\J	.	.	.	.	.	.	.	.	.
!	!	!	!LO:LB:g=original	!	!	!	!	!	!	!	!	!
4F#\	.	.	8r	.	.	.	.	.	.	.	.	.
.	.	.	8a/	.	(>16dd#X\LL	.	.	.	(>16dd#X\LL	.	.	.
.	.	.	.	.	16ee\JJ)	.	.	.	16ee\JJ)	.	.	.
4D#X\	.	.	8r	.	(>16dd#\LL	.	.	.	(>16dd#\LL	.	.	.
.	.	.	.	.	16cc#\	.	.	.	16cc#\	.	.	.
.	.	.	8f#/	.	16b\	.	.	.	16b\	.	.	.
.	.	.	.	.	16a\JJ)	.	.	.	16a\JJ)	.	.	.
=68	=68	=68	=68	=68	=68	=68	=68	=68	=68	=68	=68	=68
!	!	!	!LO:TX:t=P:problem=mixed beam	!	!LO:TX:t=P:problem=mixed beam	!	!	!	!	!	!	!
4E\	.	.	8e/L	.	(<8g#/L	.	2.ryy	.	8g#\L	.	2.ryy	2.ryy
.	.	.	8f#/	.	8a/	.	.	.	8a\J	.	.	.
4G#\	.	.	8g#/	.	8b/)	.	.	.	4b\	-ter	.	.
.	.	.	8gg#\J	.	8bb\J	.	.	.	.	.	.	.
4E\	.	.	8r	.	8r	.	.	.	4e/	De-	.	.
.	.	.	8g#/	.	8b\	.	.	.	.	.	.	.
=69	=69	=69	=69	=69	=69	=69	=69	=69	=69	=69	=69	=69
!	!	!	!LO:TX:t=P:problem=mixed beam	!	!	!	!	!	!	!	!	!
4A\	.	.	8e/L	.	4.cc#\	.	2.ryy	.	4.cc#\	.	2.ryy	2.ryy
.	.	.	8ee\J	.	.	.	.	.	.	.	.	.
4F#\	.	.	8r	.	.	.	.	.	.	.	.	.
.	.	.	8a/	.	(>16dd#X\LL	.	.	.	(>16dd#X\LL	.	.	.
.	.	.	.	.	16ee\JJ)	.	.	.	16ee\JJ)	.	.	.
4D#X\	.	.	8r	.	16dd#\LL	.	.	.	16dd#\LL	.	.	.
.	.	.	.	.	16cc#\	.	.	.	16cc#\JJ	.	.	.
.	.	.	8f#/	.	16b\	.	.	.	16b\LL	-us	.	.
.	.	.	.	.	16a\JJ	.	.	.	16a\JJ	.	.	.
=70	=70	=70	=70	=70	=70	=70	=70	=70	=70	=70	=70	=70
*	*	*	*	*	*	*	*	*	*Xtuplet	*	*	*
4E\	.	.	4e/	.	4g#/	.	2.ryy	.	12g#/L	pa-	2.ryy	2.ryy
.	.	.	.	.	.	.	.	.	12e/	.	.	.
!	!	!	!	!	!	!	!	!	!LO:TX:t=P:problem=dźwięk nieczytelny	!	!	!
.	.	.	.	.	.	.	.	.	12f#/Jyy	.	.	.
*	*	*	*	*	*	*	*	*	*tuplet	*	*	*
!	!	!	!	!	!	!	!	!	!LO:TUP:a:problem=klamra łukowa, kropka zamiast numeru	!	!	!
4r	.	.	4r	.	4r	.	.	.	12g#\L	.	.	.
.	.	.	.	.	.	.	.	.	12a\	.	.	.
.	.	.	.	.	.	.	.	.	12b\J	.	.	.
!	!	!	!	!	!	!	!	!	!LO:TUP:a:problem=klamra łukowa, kropka zamiast numeru	!	!	!
4A\	.	.	4r	.	4ee\	.	.	.	12cc#\L	.	.	.
.	.	.	.	.	.	.	.	.	12b\	.	.	.
.	.	.	.	.	.	.	.	.	12a\J	.	.	.
=71	=71	=71	=71	=71	=71	=71	=71	=71	=71	=71	=71	=71
!	!	!	!	!	!	!	!	!	!LO:TUP:a:problem=klamra łukowa, kropka zamiast numeru	!	!	!
4B\	.	.	4b\	.	[>4dd#X\	.	2.ryy	.	12dd#X\L	.	2.ryy	2.ryy
.	.	.	.	.	.	.	.	.	12b\	.	.	.
.	.	.	.	.	.	.	.	.	12cc#\J	.	.	.
*	*	*	*tuplet	*	*	*	*	*	*	*	*	*
!	!	!	!LO:TUP:a:problem=klamra łukowa, kropka zamiast numeru	!	!	!	!	!	!	!	!	!
*	*	*	*	*	*Xtuplet	*	*	*	*	*	*	*
!	!	!	!	!	!	!	!	!	!LO:TUP:a:problem=klamra łukowa, kropka zamiast numeru	!	!	!
4BB/	.	.	12b\L	.	12dd#\L]	.	.	.	12dd#\L	.	.	.
.	.	.	12cc#\	.	12ee\	.	.	.	12ee\	.	.	.
.	.	.	12dd#X\J	.	12ff#\J	.	.	.	12ff#\J	.	.	.
!	!	!	!LO:TUP:a:problem=klamra łukowa, kropka zamiast numeru	!	!LO:TUP:a:problem=klamra łukowa	!	!	!	!LO:TUP:a:problem=klamra łukowa, kropka zamiast numeru	!	!	!
4B\	.	.	12ee\L	.	12gg#\L	.	.	.	12gg#\L	.	.	.
.	.	.	12dd#\	.	12ff#\	.	.	.	12ff#\	.	.	.
.	.	.	12cc#\J	.	12ee\J	.	.	.	12ee\J	.	.	.
=72	=72	=72	=72	=72	=72	=72	=72	=72	=72	=72	=72	=72
!	!	!	!	!	!LO:TX:t=P:problem=mixed beam	!	!	!	!	!	!	!
4BB/	.	.	8a/L	.	8dd#X\L	.	2.ryy	.	8dd#X\L	.	2.ryy	2.ryy
.	.	.	8g#X/	.	8ee\	.	.	.	8ee\	.	.	.
4D#X/	.	.	8a/	.	8ff#\	.	.	.	8ff#\	.	.	.
.	.	.	8f#/	.	8a/	.	.	.	8a\	.	.	.
4BB/	.	.	8e/	.	8g#/	.	.	.	8g#\	.	.	.
.	.	.	8d#X/J	.	8f#/J	.	.	.	8f#\J	.	.	.
=73	=73	=73	=73	=73	=73	=73	=73	=73	=73	=73	=73	=73
4E\	.	.	4e/	.	12g#/L	.	2.ryy	.	8g#/	-ter	2.ryy	2.ryy
.	.	.	.	.	12f#/	.	.	.	.	.	.	.
.	.	.	.	.	.	.	.	.	8e/	om-	.	.
.	.	.	.	.	12e/J	.	.	.	.	.	.	.
.	.	.	8qqe/	.	.	.	.	.	8qqg#/	.	.	.
4B\	.	.	2d#X/	.	2f#T/	.	.	.	4.f#/	-ni-	.	.
4BB/	.	.	.	.	.	.	.	.	.	.	.	.
.	.	.	.	.	.	.	.	.	8f#/	-po-	.	.
=74	=74	=74	=74	=74	=74	=74	=74	=74	=74	=74	=74	=74
!	!	!	!	!LO:DY:a:t=f&colon;	!	!LO:DY:a:t=for	!	!	!	!	!	!
!	!	!	!	!	!	!	!	!	!LO:TX:a:t=P:problem=urwany róg kartki w źródle - "s" niewidoczne	!	!	!
4E\	.	.	4ee 4b 4e/	f	4ee\	f	2.ryy	.	4e/	-ten[s]	2.ryy	2.ryy
4F#\	.	.	4dd#X\	.	4dd#X\	.	.	.	4r	.	.	.
4G#\	.	.	4eeT\	.	4eeT\	.	.	.	4r	.	.	.
!	!	!	!	!	!LO:LB:g=original	!	!	!	!LO:PB:g=original	!	!	!
=75	=75	=75	=75	=75	=75	=75	=75	=75	=75	=75	=75	=75
!	!	!	!LO:TX:t=P:problem=mixed beam	!	!LO:TX:t=P:problem=mixed beam	!	!	!	!	!	!	!
4D#X\	.	X 3	8ff#\L	.	8ee\L	.	2.ryy	.	1.r	.	2.ryy	2.ryy
.	.	.	8g#/J	.	8g#/J	.	.	.	.	.	.	.
.	.	.	8qqg#/	.	8qqg#/	.	.	.	.	.	.	.
4E\	.	X 3	2a/	.	2a/	.	.	.	.	.	.	.
4F#\	.	X 3	.	.	.	.	.	.	.	.	.	.
=76	=76	=76	=76	=76	=76	=76	=76	=76	=76	=76	=76	=76
!	!	!	!LO:TUP:b:problem=klamra łukowa, kropka zamiast numeru	!	!	!	!	!	!	!	!	!
4E\	.	.	12g#/L	.	12g#/L	.	2.ryy	.	.	.	2.ryy	2.ryy
.	.	.	12e/	.	12e/	.	.	.	.	.	.	.
.	.	.	12f#/J	.	12f#/J	.	.	.	.	.	.	.
!	!	!	!LO:TUP:b:problem=klamra łukowa, kropka zamiast numeru	!	!	!	!	!	!	!	!	!
4r	.	.	12g#/L	.	12g#/L	.	.	.	.	.	.	.
.	.	.	12a/	.	12a/	.	.	.	.	.	.	.
.	.	.	12b/J	.	12b/J	.	.	.	.	.	.	.
!	!	!	!LO:TX:t=P:problem=mixed beam	!	!	!	!	!	!	!	!	!
4A\	.	.	8.cc#\L	.	8.cc#/L	.	.	.	.	.	.	.
.	.	.	16e/Jk	.	16e/Jk	.	.	.	.	.	.	.
=77	=77	=77	=77	=77	=77	=77	=77	=77	=77	=77	=77	=77
4B\	.	.	4d#X/	.	4d#X/	.	2.ryy	.	2.r	.	2.ryy	2.ryy
8E\L	.	.	4e/	.	4e/	.	.	.	.	.	.	.
8D\	.	.	.	.	.	.	.	.	.	.	.	.
8C#\	.	.	4r	.	4r	.	.	.	.	.	.	.
8BB\J	.	.	.	.	.	.	.	.	.	.	.	.
=78	=78	=78	=78	=78	=78	=78	=78	=78	=78	=78	=78	=78
!	!LO:DY:a:t=p&colon;	!	!	!LO:DY:a:t=p&colon;	!	!LO:DY:a:t=p.:rj	!	!	!	!	!	!
4AA/	p	.	4aa\	p	4aa\	p	2.ryy	.	4a\	Do-	2.ryy	2.ryy
4BB/	.	.	4gg#\	.	4gg#\	.	.	.	4g#\	-mi-	.	.
4C#/	.	.	4aa\	.	4aa\	.	.	.	4a\	-ne	.	.
!	!	!	!LO:LB:g=original	!	!	!	!	!	!	!	!	!
=79	=79	=79	=79	=79	=79	=79	=79	=79	=79	=79	=79	=79
4GG#/	.	.	8bb\L	.	8.bb\L	.	2.ryy	.	4b\	Fi-	2.ryy	2.ryy
.	.	.	8cc#\J	.	.	.	.	.	.	.	.	.
.	.	.	.	.	16cc#\Jk	.	.	.	.	.	.	.
.	.	.	(<8qqcc#/	.	8qqcc#/	.	.	.	.	.	.	.
4AA/	.	.	2dd\)	.	2dd\	.	.	.	4cc#\	.	.	.
4BB/	.	.	.	.	.	.	.	.	4dd\	-li	.	.
=80	=80	=80	=80	=80	=80	=80	=80	=80	=80	=80	=80	=80
4AA/	.	.	4e/	.	12cc#\L	.	2.ryy	.	8cc#\	Fi-	2.ryy	2.ryy
.	.	.	.	.	12a\	.	.	.	.	.	.	.
.	.	.	.	.	.	.	.	.	8qqb/	.	.	.
.	.	.	.	.	.	.	.	.	8a\	-li	.	.
.	.	.	.	.	12b\J	.	.	.	.	.	.	.
4r	.	.	4r	.	12cc#\L	.	.	.	4ff#\	u-	.	.
.	.	.	.	.	12dd\	.	.	.	.	.	.	.
.	.	.	.	.	12ee\J	.	.	.	.	.	.	.
!	!	!	!	!	!LO:TX:t=P:problem=mixed beam	!	!	!	!	!	!	!
4D\	.	.	4r	.	8.ff#\L	.	.	.	4a\	-ni-	.	.
.	.	.	.	.	16f#/Jk	.	.	.	.	.	.	.
!LO:LB:g=original	!	!	!	!	!	!	!	!	!	!	!	!
=81	=81	=81	=81	=81	=81	=81	=81	=81	=81	=81	=81	=81
.	.	.	.	.	.	.	.	.	8qa/	.	.	.
4E\	.	.	8r	.	4g#/	.	2.ryy	.	8.g#\	-ge-	2.ryy	2.ryy
.	.	.	8ee\L	.	.	.	.	.	.	.	.	.
.	.	.	.	.	.	.	.	.	16g#\	-ni-	.	.
4AA/	.	.	8cc#\	.	4a/	.	.	.	4a\	-te	.	.
.	.	.	8ee\	.	.	.	.	.	.	.	.	.
4r	.	.	8a\	.	8r	.	.	.	[<4ee\	Je-	.	.
.	.	.	8cc#\J	.	8aa\	.	.	.	.	.	.	.
=82	=82	=82	=82	=82	=82	=82	=82	=82	=82	=82	=82	=82
*	*	*	*	*	*tuplet	*	*	*	*	*	*	*
!	!	!	!	!	!LO:TUP:a:problem=klamra łukowa, kropka zamiast numeru	!	!	!	!	!	!	!
4C#/	.	.	8r	.	24ee\LL	.	2.ryy	.	8ee\L]	.	2.ryy	2.ryy
.	.	.	.	.	24dd\	.	.	.	.	.	.	.
.	.	.	.	.	24cc#\JJ	.	.	.	.	.	.	.
.	.	.	8ee\L	.	8aa\	.	.	.	8ddn\	.	.	.
4C#/	.	.	8cc#\	.	8r	.	.	.	8cc#\	.	.	.
.	.	.	8ee\	.	8aa\	.	.	.	8b\	.	.	.
4C#/	.	.	8a\	.	8r	.	.	.	8a\	.	.	.
.	.	.	8ee\J	.	8aa\	.	.	.	8gn\J	.	.	.
=83	=83	=83	=83	=83	=83	=83	=83	=83	=83	=83	=83	=83
!	!	!	!	!	!LO:TUP:a:problem=klamra łukowa, kropka zamiast numeru	!	!	!	!	!	!	!
4D\	.	.	8r	.	24ff#\LL	.	2.ryy	.	4f#/	.	2.ryy	2.ryy
.	.	.	.	.	24ee\	.	.	.	.	.	.	.
.	.	.	.	.	24dd\JJ	.	.	.	.	.	.	.
.	.	.	8ff#\L	.	8aa\	.	.	.	.	.	.	.
.	.	.	.	.	.	.	.	.	8qqe/	.	.	.
4D\	.	.	8dd\	.	8r	.	.	.	4d/	-su	.	.
.	.	.	8ff#\	.	8aa\	.	.	.	.	.	.	.
4D\	.	.	8a\	.	8r	.	.	.	[<4ff#\	Je-	.	.
.	.	.	8ff#\J	.	8aa\	.	.	.	.	.	.	.
=84	=84	=84	=84	=84	=84	=84	=84	=84	=84	=84	=84	=84
!	!	!	!	!	!LO:TUP:a:problem=klamra łukowa, kropka zamiast numeru	!	!	!	!	!	!	!
4D#X\	.	.	8r	.	24ff#\LL	.	2.ryy	.	8ff#\L]	.	2.ryy	2.ryy
.	.	.	.	.	24ee\	.	.	.	.	.	.	.
.	.	.	.	.	24dd#X\JJ	.	.	.	.	.	.	.
.	.	.	8ff#\L	.	8bb\	.	.	.	8ee\	.	.	.
4D#\	.	.	8dd#X\	.	8r	.	.	.	8dd#X\	.	.	.
.	.	.	8ff#\	.	8bb\	.	.	.	8cc#\J	.	.	.
4D#\	.	.	8b\	.	8r	.	.	.	8b\L	su	.	.
.	.	.	8ff#\J	.	8bb\	.	.	.	8a\J	.	.	.
=85	=85	=85	=85	=85	=85	=85	=85	=85	=85	=85	=85	=85
!	!	!	!	!	!LO:TUP:a:problem=klamra łukowa, kropka zamiast numeru	!	!	!	!	!	!	!
4E\	.	.	8r	.	24gg#\LL	.	2.ryy	.	4g#X/	Chri-	2.ryy	2.ryy
.	.	.	.	.	24ff#\	.	.	.	.	.	.	.
.	.	.	.	.	24ee\JJ	.	.	.	.	.	.	.
.	.	.	8gg#X\L	.	8bb\	.	.	.	.	.	.	.
.	.	.	.	.	.	.	.	.	8qqf#/	.	.	.
4E\	.	.	8ee\	.	8r	.	.	.	4e/	-ste	.	.
.	.	.	8gg#\	.	8bb\	.	.	.	.	.	.	.
4E\	.	.	8b\	.	8r	.	.	.	4r	.	.	.
.	.	.	8gg#\J	.	8bb\	.	.	.	.	.	.	.
!	!	!	!	!	!	!	!	!	!LO:LB:g=original	!	!	!
=86	=86	=86	=86	=86	=86	=86	=86	=86	=86	=86	=86	=86
4F#\	.	.	(>16aa\KL	.	(>16ccc#\KL	.	2.ryy	.	8.ee\L	Do-	2.ryy	2.ryy
.	.	.	8.cc#\J)	.	8.ee\J)	.	.	.	.	.	.	.
.	.	.	.	.	.	.	.	.	(>32ff#\LL	.	.	.
.	.	.	.	.	.	.	.	.	32gg#\JJJ)	.	.	.
4r	.	.	(>16dd\KL	.	(>16ff#\KL	.	.	.	(>8ff#\L	.	.	.
.	.	.	8.cc#\J)	.	8.ee\J)	.	.	.	.	.	.	.
.	.	.	.	.	.	.	.	.	8ee\J)	.	.	.
4FF#/	.	.	(>16b\KL	.	(>16dd\KL	.	.	.	8dd\	-mi-	.	.
.	.	.	8.a#X\J)	.	8.cc#\J)	.	.	.	.	.	.	.
.	.	.	.	.	.	.	.	.	8cc#\	-ne	.	.
=87	=87	=87	=87	=87	=87	=87	=87	=87	=87	=87	=87	=87
!	!	!	!	!	!LO:TUP:a:problem=klamra łukowa, kropka zamiast numeru	!	!	!	!	!	!	!
4BB/	.	.	8b\L	.	24dd\LL	.	2.ryy	.	(>4dd\	De-	2.ryy	2.ryy
.	.	.	.	.	24cc#\	.	.	.	.	.	.	.
.	.	.	.	.	24b\JJ	.	.	.	.	.	.	.
.	.	.	8ff#\	.	8ddd\	.	.	.	.	.	.	.
4D/	.	.	8dd\	.	8r	.	.	.	4b\)	.	.	.
.	.	.	8ff#\	.	8bb\	.	.	.	.	.	.	.
4F#\	.	.	8cc#\	.	8r	.	.	.	4cc#\	-us	.	.
.	.	.	8ee\J	.	8aa\	.	.	.	.	.	.	.
=88	=88	=88	=88	=88	=88	=88	=88	=88	=88	=88	=88	=88
4E\	.	.	(>16dd\KL	.	(>16gg#\KL	.	2.ryy	.	(>8.dd\L	Ag-	2.ryy	2.ryy
.	.	.	8.b\J)	.	8.dd\J)	.	.	.	.	.	.	.
.	.	.	.	.	.	.	.	.	32ee\LL	.	.	.
.	.	.	.	.	.	.	.	.	32ff#\JJJ)	.	.	.
4r	.	.	(>16cc#\KL	.	(>16ee\KL	.	.	.	(>8ee\L	.	.	.
.	.	.	8.b\J)	.	8.dd\J)	.	.	.	.	.	.	.
.	.	.	.	.	.	.	.	.	8dd\J)	.	.	.
4EE/	.	.	(<16a/KL	.	(>16cc#\KL	.	.	.	(>8cc#\L	-nus	.	.
.	.	.	8.g#/J)	.	8.b\J)	.	.	.	.	.	.	.
.	.	.	.	.	.	.	.	.	8b\J)	.	.	.
=89	=89	=89	=89	=89	=89	=89	=89	=89	=89	=89	=89	=89
!	!	!	!	!	!LO:TUP:a:problem=klamra łukowa, kropka zamiast numeru	!	!	!	!	!	!	!
4AA/	.	.	8a\L	.	24cc#\LL	.	2.ryy	.	(>4cc#\	De-	2.ryy	2.ryy
.	.	.	.	.	24b\	.	.	.	.	.	.	.
.	.	.	.	.	24a\JJ	.	.	.	.	.	.	.
.	.	.	8ee\J	.	8ccc#\	.	.	.	.	.	.	.
4C#/	.	X 6	8cc#\L	.	8r	.	.	.	4a\)	.	.	.
.	.	.	8ee\J	.	8aa\	.	.	.	.	.	.	.
4E/	.	.	8b\L	.	8r	.	.	.	4b\	-i	.	.
.	.	.	8dd\J	.	8gg#\	.	.	.	.	.	.	.
!	!	!	!LO:LB:g=original	!	!	!	!	!	!	!	!	!
=90	=90	=90	=90	=90	=90	=90	=90	=90	=90	=90	=90	=90
4A\	.	.	4cc#\	.	(>16aa\KL	.	2.ryy	.	(>8.cc#\L	fi-	2.ryy	2.ryy
.	.	.	.	.	8.ee\J)	.	.	.	.	.	.	.
.	.	.	.	.	.	.	.	.	32dd\LL	.	.	.
.	.	.	.	.	.	.	.	.	32ee\JJJ)	.	.	.
*2\right	*	*	*	*	*	*	*	*	*	*	*	*
2D\	.	.	(>16b\KL	.	(>16dd\KL	.	.	.	(>8dd\L	li-	.	.
.	.	.	8.a\J)	.	8.cc#\J)	.	.	.	.	.	.	.
.	.	.	.	.	.	.	.	.	8cc#\J)	.	.	.
.	.	.	(<16g#/KL	.	(>16b\KL	.	.	.	(>8b\L	-us	.	.
.	.	.	8.f#/J)	.	8.a\J)	.	.	.	.	.	.	.
.	.	.	.	.	.	.	.	.	8a\J)	.	.	.
=91	=91	=91	=91	=91	=91	=91	=91	=91	=91	=91	=91	=91
4E\	.	X 3	8e/	.	8g#/	.	2.ryy	.	8g#\	pa-	2.ryy	2.ryy
.	.	.	4f#/	.	4a/	.	.	.	4a\	.	.	.
8r	.	.	.	.	.	.	.	.	.	.	.	.
!LO:TX:t=P:problem=mixed beam	!	!	!	!	!	!	!	!	!	!	!	!
8E\L	.	.	4g#/	.	4b/	.	.	.	4b\	.	.	.
8EE/	.	.	.	.	.	.	.	.	.	.	.	.
.	.	.	8qqf#/	.	8qqa/	.	.	.	8qqa/	.	.	.
8E\J	.	.	8e/	.	8g#/	.	.	.	8g#\	.	.	.
=92	=92	=92	=92	=92	=92	=92	=92	=92	=92	=92	=92	=92
4E\	.	.	8f#/	.	8a/	.	2.ryy	.	8a\	.	2.ryy	2.ryy
.	.	.	4g#/	.	4b/	.	.	.	4b\	.	.	.
8r	.	.	.	.	.	.	.	.	.	.	.	.
!LO:TX:t=P:problem=mixed beam	!	!	!	!	!	!	!	!	!	!	!	!
8E\L	.	.	4a/	.	4cc#/	.	.	.	4cc#\	.	.	.
8EE/	.	.	.	.	.	.	.	.	.	.	.	.
.	.	.	8qqg#/	.	8qqb/	.	.	.	8qb/	.	.	.
8E\J	.	.	8f#/	.	8a/	.	.	.	8a\	.	.	.
=93	=93	=93	=93	=93	=93	=93	=93	=93	=93	=93	=93	=93
4EE/	.	.	8g#/	.	8b\	.	2.ryy	.	8b\	.	2.ryy	2.ryy
.	.	.	4a/	.	4cc#\	.	.	.	4cc#\	.	.	.
8r	.	.	.	.	.	.	.	.	.	.	.	.
!LO:TX:t=P:problem=mixed beam	!	!	!	!	!	!	!	!	!	!	!	!
8E\L	.	.	4b/	.	4dd\	.	.	.	4dd\	.	.	.
8EE/	.	.	.	.	.	.	.	.	.	.	.	.
.	.	.	8qqa/	.	8qqcc#/	.	.	.	8qqcc#/	.	.	.
8E\J	.	.	8g#/	.	8b\	.	.	.	8b\	.	.	.
!	!	!	!	!	!LO:LB:g=original	!	!	!	!LO:LB:g=original	!	!	!
=94	=94	=94	=94	=94	=94	=94	=94	=94	=94	=94	=94	=94
!	!	!	!	!	!	!	!	!	!LO:TUP:a:problem=klamra łukowa, kropka zamiast numeru	!	!	!
4AA/	.	.	4e/	.	4cc#\	.	2.ryy	.	12cc#\L	.	2.ryy	2.ryy
.	.	.	.	.	.	.	.	.	12dd\	.	.	.
.	.	.	.	.	.	.	.	.	12ee\J	.	.	.
!	!	!	!	!	!	!	!	!	!LO:TUP:a:problem=klamra łukowa, kropka zamiast numeru	!	!	!
4r	.	.	4r	.	4r	.	.	.	12ff#\L	.	.	.
.	.	.	.	.	.	.	.	.	12ee\	.	.	.
.	.	.	.	.	.	.	.	.	12dd\J	.	.	.
!	!	!	!	!	!	!	!	!	!LO:TUP:a:problem=klamra łukowa, kropka zamiast numeru	!	!	!
4D\	.	.	4r	.	4r	.	.	.	12cc#\L	.	.	.
.	.	.	.	.	.	.	.	.	12b\	.	.	.
.	.	.	.	.	.	.	.	.	12a\J	.	.	.
=95	=95	=95	=95	=95	=95	=95	=95	=95	=95	=95	=95	=95
4D\	.	.	1.r	.	1.r	.	2.ryy	.	4g#\	.	2.ryy	2.ryy
4C#\	.	.	.	.	.	.	.	.	4a\	.	.	.
4BB\	.	.	.	.	.	.	.	.	4dd\	.	.	.
=96	=96	=96	=96	=96	=96	=96	=96	=96	=96	=96	=96	=96
!	!	!	!LO:TX:a:i:t=Da Capo	!	!LO:TX:a:i:t=Da Capo	!	!	!	!LO:TUP:a:problem=klamra łukowa, kropka zamiast numeru	!	!	!
4AA/	.	.	.	.	.	.	2.ryy	.	12cc#\L	.	2.ryy	2.ryy
.	.	.	.	.	.	.	.	.	12b\	.	.	.
.	.	.	.	.	.	.	.	.	12a\J	.	.	.
*	*	*	*	*	*	*	*	*	*2\right	*	*	*
4E\	.	.	.	.	.	.	.	.	2bT\	.	.	.
!LO:TX:a:i:t=Da Capo	!	!	!	!	!	!	!	!	!	!	!	!
4EE;/	.	.	.	.	.	.	.	.	.	.	.	.
=97	=97	=97	=97	=97	=97	=97	=97	=97	=97	=97	=97	=97
4A\yy	.	.	4aa\yy	.	4aa\yy	.	2.ryy	.	4a\	-tris	2.ryy	2.ryy
4B\yy	.	.	4gg#\yy	.	4gg#\yy	.	.	.	4r	.	.	.
4c#\yy	.	.	4aa\yy	.	4aa\yy	.	.	.	4r	.	.	.
=98	=98	=98	=98	=98	=98	=98	=98	=98	=98	=98	=98	=98
!	!	!	!	!	!	!	!	!	!LO:TX:t=P:problem=brak taktu	!	!	!
4G#\yy	.	.	8bb\Lyy	.	8bb\Lyy	.	2.ryy	.	2.ryy	.	2.ryy	2.ryy
.	.	.	8cc#\Jyy	.	8cc#\Jyy	.	.	.	.	.	.	.
.	.	.	8qqcc#/yy	.	8qqcc#/yy	.	.	.	.	.	.	.
*	*	*	*2\right	*	*	*	*	*	*	*	*	*
4A\yy	.	.	2dd\yy	.	2dd\yy	.	.	.	.	.	.	.
4B\yy	.	.	.	.	.	.	.	.	.	.	.	.
=99	=99	=99	=99	=99	=99	=99	=99	=99	=99	=99	=99	=99
!	!	!	!LO:TUP:a:problem=klamra łukowa, kropka zamiast numeru	!	!LO:TUP:a:problem=klamra łukowa	!	!	!	!	!	!	!
4A\yy	.	.	12cc#'\Lyy	.	12cc#\Lyy	.	2.ryy	.	0.r	.	2.ryy	2.ryy
.	.	.	12a'\yy	.	12a\|yy	.	.	.	.	.	.	.
.	.	.	12b'\Jyy	.	12b\J|yy	.	.	.	.	.	.	.
!	!	!	!LO:TUP:a:problem=klamra łukowa, kropka zamiast numeru	!	!	!	!	!	!	!	!	!
*	*	*	*	*	*Xtuplet	*	*	*	*	*	*	*
4ryy	.	.	12cc#'\Lyy	.	12cc#\L|yy	.	.	.	.	.	.	.
.	.	.	12dd'\yy	.	12dd\|yy	.	.	.	.	.	.	.
.	.	.	12ee'\Jyy	.	12ee\J|yy	.	.	.	.	.	.	.
!	!	!	!LO:TX:t=P:problem=mixed beam	!	!LO:TX:t=P:problem=mixed beam	!	!	!	!	!	!	!
4D\yy	.	.	8.ff#\Lyy	.	8.ff#\Lyy	.	.	.	.	.	.	.
.	.	.	16f#/Jkyy	.	16f#/Jkyy	.	.	.	.	.	.	.
=100	=100	=100	=100	=100	=100	=100	=100	=100	=100	=100	=100	=100
4E\yy	.	.	4g#/yy	.	4g#/yy	.	2.ryy	.	.	.	2.ryy	2.ryy
4AA/yy	.	.	4a/yy	.	4a/yy	.	.	.	.	.	.	.
4ryy	.	.	4ryy	.	4ryy	.	.	.	.	.	.	.
=101	=101	=101	=101	=101	=101	=101	=101	=101	=101	=101	=101	=101
!	!	!	!LO:TX:t=P:problem=mixed beam	!	!	!	!	!	!	!	!	!
4AA/yy	.	.	8.a/Lyy	.	8.cc#\Lyy	.	2.ryy	.	.	.	2.ryy	2.ryy
.	.	.	16aa\Jkyy	.	16aa\Jkyy	.	.	.	.	.	.	.
4C#/yy	.	.	4a/yy	.	4cc#\yy	.	.	.	.	.	.	.
4AA/yy	.	.	4a/yy	.	4cc#\yy	.	.	.	.	.	.	.
=102	=102	=102	=102	=102	=102	=102	=102	=102	=102	=102	=102	=102
.	.	.	8qqb/yy	.	8qqdd/yy	.	.	.	.	.	.	.
4E\yy	.	.	4a/yy	.	4cc#\yy	.	2.ryy	.	.	.	2.ryy	2.ryy
4EE/yy	.	.	4g#/yy	.	4b\yy	.	.	.	.	.	.	.
4G#\yy	.	.	[y>4ee\yy	.	[[>4ee\yy	.	.	.	.	.	.	.
=103	=103	=103	=103	=103	=103	=103	=103	=103	=103	=103	=103	=103
2F#\yy	.	.	4ee\]yy	.	4ee\]]yy	.	2.ryy	.	0.r	.	2.ryy	2.ryy
!	!	!	!LO:TUP:a:problem=klamra łukowa, kropka zamiast numeru	!	!	!	!	!	!	!	!	!
*	*	*	*	*	*tuplet	*	*	*	*	*	*	*
!	!	!	!	!	!LO:TUP:a:problem=klamra łukowa, kropka zamiast numeru	!	!	!	!	!	!	!
.	.	.	12dd#X\Lyy	.	12dd#X\Lyy	.	.	.	.	.	.	.
.	.	.	12cc#\yy	.	12cc#\yy	.	.	.	.	.	.	.
.	.	.	12b\Jyy	.	12b\Jyy	.	.	.	.	.	.	.
!	!	!	!LO:TUP:b:problem=klamra łukowa, kropka zamiast numeru	!	!LO:TUP:b:problem=klamra łukowa, kropka zamiast numeru	!	!	!	!	!	!	!
4BB/yy	.	.	12a/Lyy	.	12a/Lyy	.	.	.	.	.	.	.
.	.	.	12g#/yy	.	12g#/yy	.	.	.	.	.	.	.
.	.	.	12f#/Jyy	.	12f#/Jyy	.	.	.	.	.	.	.
=104	=104	=104	=104	=104	=104	=104	=104	=104	=104	=104	=104	=104
4E\yy	.	.	4g#/yy	.	4g#/yy	.	2.ryy	.	.	.	2.ryy	2.ryy
.	.	.	8qqf#/yy	.	8qf#/yy	.	.	.	.	.	.	.
4e\yy	.	.	4e/yy	.	4e/yy	.	.	.	.	.	.	.
4c#\yy	.	.	[y<4aa\yy	.	[[>4aa\yy	.	.	.	.	.	.	.
=105	=105	=105	=105	=105	=105	=105	=105	=105	=105	=105	=105	=105
2B\yy	.	.	4aa\]yy	.	4aa\]]yy	.	2.ryy	.	.	.	2.ryy	2.ryy
!	!	!	!LO:TUP:a:problem=klamra łukowa, kropka zamiast numeru	!	!LO:TUP:a:problem=klamra łukowa, kropka zamiast numeru	!	!	!	!	!	!	!
.	.	.	12gg#\Lyy	.	12gg#\Lyy	.	.	.	.	.	.	.
.	.	.	12ff#\yy	.	12ff#\yy	.	.	.	.	.	.	.
.	.	.	12ee\Jyy	.	12ee\Jyy	.	.	.	.	.	.	.
*	*	*	*Xtuplet	*	*	*	*	*	*	*	*	*
!	!	!	!	!	!LO:TUP:a:problem=klamra łukowa, kropka zamiast numeru	!	!	!	!	!	!	!
4E\yy	.	.	12ddn\Lyy	.	12ddn\Lyy	.	.	.	.	.	.	.
.	.	.	12cc#\yy	.	12cc#\yy	.	.	.	.	.	.	.
.	.	.	12b\Jyy	.	12b\Jyy	.	.	.	.	.	.	.
=106	=106	=106	=106	=106	=106	=106	=106	=106	=106	=106	=106	=106
!	!	!	!	!	!LO:TUP:a:problem=klamra łukowa, kropka zamiast numeru	!	!	!	!	!	!	!
4A\yy	.	.	8a\Lyy	.	24cc#\LLyy	.	2.ryy	.	.	.	2.ryy	2.ryy
.	.	.	.	.	24b\yy	.	.	.	.	.	.	.
.	.	.	.	.	24a\JJyy	.	.	.	.	.	.	.
.	.	.	8ee\yy	.	8aa\yy	.	.	.	.	.	.	.
4C#/yy	.	.	8cc#\yy	.	8ryy	.	.	.	.	.	.	.
.	.	.	8ee\yy	.	8aa\yy	.	.	.	.	.	.	.
4C#/yy	.	.	8a\yy	.	8ryy	.	.	.	.	.	.	.
.	.	.	8ee\Jyy	.	8aa\yy	.	.	.	.	.	.	.
=107	=107	=107	=107	=107	=107	=107	=107	=107	=107	=107	=107	=107
!	!	!	!	!	!LO:TUP:a:problem=klamra łukowa, kropka zamiast numeru	!	!	!	!	!	!	!
4D\yy	.	.	8ryy	.	24ff#\LLyy	.	2.ryy	.	0.r	.	2.ryy	2.ryy
.	.	.	.	.	24ee\yy	.	.	.	.	.	.	.
.	.	.	.	.	24dd\JJyy	.	.	.	.	.	.	.
.	.	.	8ff#\Lyy	.	8aa\yy	.	.	.	.	.	.	.
4D\yy	.	.	8dd\yy	.	8ryy	.	.	.	.	.	.	.
.	.	.	8ff#\yy	.	8aa\yy	.	.	.	.	.	.	.
4D\yy	.	.	8a\yy	.	8ryy	.	.	.	.	.	.	.
.	.	.	8ff#\Jyy	.	8aa\yy	.	.	.	.	.	.	.
=108	=108	=108	=108	=108	=108	=108	=108	=108	=108	=108	=108	=108
2AA/yy	.	.	(>16aa\KLyy	.	(>16ccc#\KLyy	.	2.ryy	.	.	.	2.ryy	2.ryy
.	.	.	8.ff#\J)yy	.	8.aa\)yy	.	.	.	.	.	.	.
.	.	.	(>16ee\KLyy	.	(>16gg#\Kyy	.	.	.	.	.	.	.
.	.	.	8.dd\J)yy	.	8.ff#\)yy	.	.	.	.	.	.	.
4ryy	.	.	16cc#\KLyy	.	(>16ee\Kyy	.	.	.	.	.	.	.
.	.	.	8.b\Jyy	.	8.dd\J)yy	.	.	.	.	.	.	.
=109	=109	=109	=109	=109	=109	=109	=109	=109	=109	=109	=109	=109
!	!	!	!	!	!LO:TUP:a:problem=klamra łukowa, kropka zamiast numeru	!	!	!	!	!	!	!
4A\yy	.	.	4a/yy	.	12cc#\Lyy	.	2.ryy	.	.	.	2.ryy	2.ryy
.	.	.	.	.	12b\yy	.	.	.	.	.	.	.
.	.	.	.	.	12a\Jyy	.	.	.	.	.	.	.
.	.	.	(<8qqa/yy	.	.	.	.	.	.	.	.	.
4e\yy	.	.	2g#/)yy	.	2bT\yy	.	.	.	.	.	.	.
4E\yy	.	.	.	.	.	.	.	.	.	.	.	.
!	!	!	!LO:LB:g=original	!	!	!	!	!	!	!	!	!
=110	=110	=110	=110	=110	=110	=110	=110	=110	=110	=110	=110	=110
!	!	!	!	!LO:DY:a:t=p&colon;	!LO:TUP:a:problem=klamra łukowa, kropka zamiast numeru	!LO:DY:a	!	!	!	!	!	!
4A\yy	.	.	8a\Lyy	p	24a\LLyy	p	2.ryy	.	.	.	2.ryy	2.ryy
.	.	.	.	.	24cc#\yy	.	.	.	.	.	.	.
.	.	.	.	.	24ee\JJyy	.	.	.	.	.	.	.
.	.	.	8ee\yy	.	8aa\yy	.	.	.	.	.	.	.
!	!LO:DY:a:t=pia	!	!	!	!	!	!	!	!	!	!	!
4C#/yy	p	.	8cc#\yy	.	8ryy	.	.	.	.	.	.	.
.	.	.	8ee\yy	.	8aa\yy	.	.	.	.	.	.	.
4C#/yy	.	.	8a\yy	.	8ryy	.	.	.	.	.	.	.
.	.	.	8ee\Jyy	.	8aa\yy	.	.	.	.	.	.	.
=111	=111	=111	=111	=111	=111	=111	=111	=111	=111	=111	=111	=111
!	!	!	!	!	!LO:TUP:a:problem=klamra łukowa, kropka zamiast numeru	!	!	!	!	!	!	!
!	!	!	!	!	!	!	!	!	!LO:TX:t=P:problem=2 fermaty - jedna na górze, druga na dole	!	!	!
4D\yy	.	.	8ryy	.	24ff#\LLyy	.	2.ryy	.	0.r;;	.	2.ryy	2.ryy
.	.	.	.	.	24ee\yy	.	.	.	.	.	.	.
.	.	.	.	.	24dd\JJyy	.	.	.	.	.	.	.
.	.	.	8ff#\Lyy	.	8aa\yy	.	.	.	.	.	.	.
4D\yy	.	.	8dd\yy	.	8ryy	.	.	.	.	.	.	.
.	.	.	8ff#\yy	.	8aa\yy	.	.	.	.	.	.	.
4D\yy	.	.	8a\yy	.	8ryy	.	.	.	.	.	.	.
.	.	.	8ff#\Jyy	.	8aa\yy	.	.	.	.	.	.	.
=112	=112	=112	=112	=112	=112	=112	=112	=112	=112	=112	=112	=112
!	!LO:DY:a:t=f&colon;	!	!	!LO:DY:a:t=for	!	!LO:DY:a	!	!	!	!	!	!
2AA/yy	f	.	(>16aa\KLyy	f	(>16ccc#\KLyy	f	2.ryy	.	.	.	2.ryy	2.ryy
.	.	.	8.ff#\J)yy	.	8.aa\J)yy	.	.	.	.	.	.	.
.	.	.	(>16ee\KLyy	.	(>16gg#\KLyy	.	.	.	.	.	.	.
.	.	.	8.dd\J)yy	.	8.ff#\J)yy	.	.	.	.	.	.	.
4ryy	.	.	(>16cc#\KLyy	.	(>16ee\KLyy	.	.	.	.	.	.	.
.	.	.	8.b\J)yy	.	8.dd\J)yy	.	.	.	.	.	.	.
=113	=113	=113	=113	=113	=113	=113	=113	=113	=113	=113	=113	=113
!	!	!	!	!	!LO:TUP:a:problem=klamra łukowa, kropka zamiast numeru	!	!	!	!	!	!	!
4A\yy	.	.	4a/yy	.	12cc#\Lyy	.	2.ryy	.	.	.	2.ryy	2.ryy
.	.	.	.	.	12b\yy	.	.	.	.	.	.	.
.	.	.	.	.	12a\Jyy	.	.	.	.	.	.	.
.	.	.	8qqa/yy	.	.	.	.	.	.	.	.	.
4e\yy	.	.	2g#t/yy	.	2bT\yy	.	.	.	.	.	.	.
4E\yy	.	.	.	.	.	.	.	.	.	.	.	.
=114	=114	=114	=114	=114	=114	=114	=114	=114	=114	=114	=114	=114
8.A\Lyy	.	.	8.a/Lyy	.	8.a/Lyy	.	2.ryy	.	.	.	2.ryy	2.ryy
16E\Jkyy	.	.	16e/Jkyy	.	16e/Jkyy	.	.	.	.	.	.	.
4AA/yy	.	.	4A/yy	.	4A;/yy	.	.	.	.	.	.	.
!LO:TX:t=P:problem=2 fermaty - jedna na górze, druga na dole	!	!	!	!	!	!	!	!	!	!	!	!
4r;;yy	.	.	4ryy	.	4ryy	.	.	.	.	.	.	.
!LO:PB:g=original	!	!	!LO:PB:g=original	!	!	!	!	!	!LO:LB:g=original	!	!	!
=115||	=115||	=115||	=115||	=115||	=115||	=115||	=115||	=115||	=115||	=115||	=115||	=115||
*k[]	*	*	*k[]	*	*k[]	*	*k[]	*	*k[]	*	*k[]	*k[]
*M2/2	*	*	*M2/2	*	*M2/2	*	*M2/2	*	*M2/2	*	*M2/2	*M2/2
*met(2)	*	*	*met(2)	*	*met(c|)	*	*met(2)	*	*met(2)	*	*met(c|)	*met(c|)
!LO:TX:a:i:t=Allo.	!	!	!LO:TX:b:i:t=Quitollis	!	!	!	!	!	!	!	!	!
!LO:TX:a:i:t=Tutti	!	!	!LO:TX:a:i:t=Tutti	!	!LO:TX:b:i:t=Quitollis	!	!	!	!LO:TX:t=P::problem=ozn. tonacji&colon; ccn fn	!	!	!
!LO:TX:b:i:t=Quitollis	!	!	!	!	!LO:TX:a:i:t=Allabreve	!	!LO:TX:t=P:problem=oznaczenie metryczne - 2 z przekreśleniem	!	!LO:TX:t=P:problem=oznaczenie metryczne - 2 z przekreśleniem	!	!	!
!LO:TX:t=P:problem=oznaczenie metryczne - 2 z przekreśleniem	!	!	!LO:TX:t=P:problem=oznaczenie metryczne - 2 z przekreśleniem	!	!	!	!	!	!	!	!	!
1A	.	.	0r	.	00r	.	1A	Qui	0r	.	1ryy	1ryy
=116	=116	=116	=116	=116	=116	=116	=116	=116	=116	=116	=116	=116
1B	.	.	.	.	.	.	1B	tol-	.	.	1ryy	1ryy
=117	=117	=117	=117	=117	=117	=117	=117	=117	=117	=117	=117	=117
*	*	*	*	*	*	*	*2\right	*	*	*	*	*
2c\	.	.	1a	.	.	.	2c\	-lis	1a	Qui	1ryy	1ryy
[<2A\	.	.	.	.	.	.	2A\	pec-	.	.	.	.
=118	=118	=118	=118	=118	=118	=118	=118	=118	=118	=118	=118	=118
2A\]	.	.	1b	.	.	.	2A\	-ca-	1b	tol-	1ryy	1ryy
2G#X\	.	.	.	.	.	.	2G#X\	.	.	.	.	.
=119	=119	=119	=119	=119	=119	=119	=119	=119	=119	=119	=119	=119
2A\	.	.	2cc\	.	1aa	.	2A\	.	2cc\	-lis	1ryy	1ryy
2F\	.	.	[<2a/	.	.	.	2F\	-ta	2a\	pec-	.	.
=120	=120	=120	=120	=120	=120	=120	=120	=120	=120	=120	=120	=120
2D\	.	.	2a/]	.	1bb	.	(>2D\	mun-	4a\	-ca-	1ryy	1ryy
.	.	.	.	.	.	.	.	.	4a\	-ta	.	.
2E\	.	.	2g#X/	.	.	.	2E\)	.	2g#X\	mun-	.	.
=121	=121	=121	=121	=121	=121	=121	=121	=121	=121	=121	=121	=121
*	*	*	*	*	*2\right	*	*	*	*	*	*	*
2AA/	.	.	2a/	.	2ccc\	.	2AA/	-di	2a\	-di	1ryy	1ryy
2r	.	.	2ff\	.	[<2aa\	.	2r	.	2ff\	qui	.	.
=122	=122	=122	=122	=122	=122	=122	=122	=122	=122	=122	=122	=122
1E	.	.	1b	.	2aa\]	.	1E	Qui	1b	tol-	1ryy	1ryy
.	.	.	.	.	2gg#X\	.	.	.	.	.	.	.
=123	=123	=123	=123	=123	=123	=123	=123	=123	=123	=123	=123	=123
4F\	.	.	2cc\	.	2.aa\	.	(>4F\	tol-	2cc\	-lis	1ryy	1ryy
4E\	.	.	.	.	.	.	4E\)	.	.	.	.	.
4F\	.	.	2dd\	.	.	.	4F\	-lis	2dd\	pec-	.	.
4D\	.	.	.	.	8bb\L	.	4D\	pec-	.	.	.	.
.	.	.	.	.	8aa\J	.	.	.	.	.	.	.
=124	=124	=124	=124	=124	=124	=124	=124	=124	=124	=124	=124	=124
4E\	.	.	2b\	.	4gg#X\	.	(>4E\	-ca-	2b\	-ca-	1ryy	1ryy
4D\	.	.	.	.	4ff\	.	4D\)	.	.	.	.	.
4C/	.	.	4a/	.	4ee\	.	(<4C/	-ta	(>4a\	-ta	.	.
4BB/	.	.	4g#X/	.	4dd\	.	4BB/)	.	4g#X\)	.	.	.
=125	=125	=125	=125	=125	=125	=125	=125	=125	=125	=125	=125	=125
2AA/	.	.	4ee\	.	4cc\	.	2AA/	mun-	2cc\	mun-	1ryy	1ryy
.	.	.	2ee\	.	4ee\	.	.	.	.	.	.	.
2GG/	.	.	.	.	4b\	.	2GG/	-di	2b\	-di	.	.
.	.	.	4bb\	.	4ee\	.	.	.	.	.	.	.
!	!	!	!	!	!	!	!LO:PB:g=original	!	!	!	!	!
=126	=126	=126	=126	=126	=126	=126	=126	=126	=126	=126	=126	=126
2FF/	.	.	4dd\	.	4a\	.	2F\	mi-	2.a\	mi-	1ryy	1ryy
.	.	.	2dd\	.	4ee\	.	.	.	.	.	.	.
2DD/	.	.	.	.	4b\	.	2D\	-se-	.	.	.	.
.	.	.	4bb\	.	4ee\	.	.	.	4b\	-se-	.	.
=127	=127	=127	=127	=127	=127	=127	=127	=127	=127	=127	=127	=127
2GG/	.	.	4g/	.	4dd\	.	2G\	-re-	2b\	-re-	1ryy	1ryy
.	.	.	4dd\	.	4bb\	.	.	.	.	.	.	.
2C/	.	.	4gg\	.	4ee\	.	2C/	-re	2cc\	-re	.	.
.	.	.	4ee\	.	4ccc\	.	.	.	.	.	.	.
!	!	!	!	!	!LO:LB:g=original	!	!	!	!	!	!	!
=128	=128	=128	=128	=128	=128	=128	=128	=128	=128	=128	=128	=128
2G\	.	.	1dd	.	4dd\	.	2G\	no-	2cc\	no-	1ryy	1ryy
.	.	.	.	.	4ccc\	.	.	.	.	.	.	.
2GG/	.	.	.	.	4dd\	.	2GG/	.	2b\	-bis	.	.
.	.	.	.	.	4bb\	.	.	.	.	.	.	.
!	!	!	!	!	!	!	!	!	!LO:LB:g=original	!	!	!
=129	=129	=129	=129	=129	=129	=129	=129	=129	=129	=129	=129	=129
2C/	.	.	1cc	.	4ccc\	.	2C/	-bis	1cc	Sus-	1ryy	1ryy
.	.	.	.	.	4gg\	.	.	.	.	.	.	.
2r	.	.	.	.	4ee\	.	2r	.	.	.	.	.
.	.	.	.	.	4cc\	.	.	.	.	.	.	.
=130	=130	=130	=130	=130	=130	=130	=130	=130	=130	=130	=130	=130
1r	.	.	2dd\	.	2b/	.	1r	.	2dd\	-ci-	1ryy	1ryy
.	.	.	2dd\	.	2g/	.	.	.	2dd\	-pe	.	.
!LO:LB:g=original	!	!	!	!	!	!	!	!	!	!	!	!
=131	=131	=131	=131	=131	=131	=131	=131	=131	=131	=131	=131	=131
1C	.	.	2.ee\	.	4cc\	.	1C	Sus-	2.ee\	de-	1ryy	1ryy
.	.	.	.	.	4g/	.	.	.	.	.	.	.
.	.	.	.	.	4e/	.	.	.	.	.	.	.
.	.	.	4ee\	.	4c/	.	.	.	4ee\	-pre-	.	.
!	!	!	!LO:LB:g=original	!	!	!	!	!	!	!	!	!
=132	=132	=132	=132	=132	=132	=132	=132	=132	=132	=132	=132	=132
1D	.	.	2b\	.	2f/	.	2D/	-ci-	2b\	-ca-	1ryy	1ryy
.	.	.	2b\	.	2g/	.	2D/	-pe	2b\	-ti-	.	.
=133	=133	=133	=133	=133	=133	=133	=133	=133	=133	=133	=133	=133
2.E\	.	.	4cc\	.	1cc	.	2.E\	de-	2cc\	-o-	1ryy	1ryy
.	.	.	4ff\	.	.	.	.	.	.	.	.	.
.	.	.	4gg\	.	.	.	.	.	2cc\	-nem	.	.
4E\	.	.	4cc\	.	.	.	4E\	-pre-	.	.	.	.
=134	=134	=134	=134	=134	=134	=134	=134	=134	=134	=134	=134	=134
1BB	.	.	4b/	.	2.dd\	.	2BB/	-ca-	2dd\	Sus-	1ryy	1ryy
.	.	.	4g/	.	.	.	.	.	.	.	.	.
.	.	.	4ff\	.	.	.	2BB/	-ti-	4ee\	-ci-	.	.
.	.	.	4dd\	.	4dd\	.	.	.	4ff\	-pe	.	.
=135	=135	=135	=135	=135	=135	=135	=135	=135	=135	=135	=135	=135
2C/	.	.	4ee\	.	2ee\	.	2C/	-o-	2ee\	de-	1ryy	1ryy
.	.	.	4gg\	.	.	.	.	.	.	.	.	.
2F#X\	.	.	4ee\	.	2ee\	.	2F#X\	.	2cc\	-pre-	.	.
.	.	.	4cc\	.	.	.	.	.	.	.	.	.
=136	=136	=136	=136	=136	=136	=136	=136	=136	=136	=136	=136	=136
2G\	.	.	2dd\	.	2b\	.	2G\	.	2ff\	-ca-	1ryy	1ryy
2E\	.	.	2g/	.	2cc\	.	2E\	-nem	2ee\	-ti-	.	.
=137	=137	=137	=137	=137	=137	=137	=137	=137	=137	=137	=137	=137
2Fn\	.	.	2a/	.	2cc\	.	2Fn\	de-	2dd\	-o-	1ryy	1ryy
2G\	.	.	2b/	.	2b\	.	2G\	-pre-	2dd\	-nem	.	.
=138	=138	=138	=138	=138	=138	=138	=138	=138	=138	=138	=138	=138
2A\	.	.	2cc\	.	2cc\	.	4A\	-ca-	1cc	nos-	1ryy	1ryy
.	.	.	.	.	.	.	4A\	-ti-	.	.	.	.
!	!	!	!	!	!	!	!LO:LB:g=original	!	!	!	!	!
2E\	.	X 6	2gg\	.	2ccc\	.	4E\	-o-	.	.	.	.
.	.	.	.	.	.	.	4E\	-nem	.	.	.	.
=139	=139	=139	=139	=139	=139	=139	=139	=139	=139	=139	=139	=139
2F\	.	6 5	2aa\	.	2dd\	.	2F\	nos-	2cc\	-tram	1ryy	1ryy
2G\	.	.	2dd\	.	2bb\	.	2G\	.	4r	.	.	.
.	.	.	.	.	.	.	.	.	4dd\	qui	.	.
!	!	!	!	!	!	!	!	!	!LO:LB:g=original	!	!	!
=140	=140	=140	=140	=140	=140	=140	=140	=140	=140	=140	=140	=140
2C/	.	.	2ee\	.	4ccc\	.	2C/	-tram	(>4ee\	Se-	1ryy	1ryy
.	.	.	.	.	4cc\	.	.	.	4cc\)	.	.	.
4r	.	.	4r	.	4ee\	.	4r	.	4ee\	-des	.	.
4c\	.	.	4dd\	.	4ff#X\	.	4c\	qui	4ff#X\	ad	.	.
=141	=141	=141	=141	=141	=141	=141	=141	=141	=141	=141	=141	=141
4B\	.	X 6	4dd\	.	2.gg\	.	(>4B\	Se-	4.gg\	dex-	1ryy	1ryy
4G\	.	.	4b\	.	.	.	4G\)	.	.	.	.	.
.	.	.	.	.	.	.	.	.	8gg\	-te-	.	.
4B\	.	.	4dd\	.	.	.	4B\	-des	4gg\	-ram	.	.
4c#X\	.	.	4ee\	.	4gg\	.	4c#X\	ad	4gg\	qui	.	.
=142	=142	=142	=142	=142	=142	=142	=142	=142	=142	=142	=142	=142
4.d\	.	.	2a/	.	4ff\	.	4.d\	dex-	(>4ffn\	Se-	1ryy	1ryy
.	.	.	.	.	4dd\	.	.	.	4dd\)	.	.	.
8d\	.	.	.	.	.	.	8d\	-te-	.	.	.	.
2d\	.	.	4r	.	4ff\	.	4d\	-ram	4ff\	-des	.	.
.	.	.	4ee\	.	4gg#X\	.	4d\	ad	4gg#X\	ad	.	.
=143	=143	=143	=143	=143	=143	=143	=143	=143	=143	=143	=143	=143
!	!	!	!	!	!	!	!LO:SIC:l:s=dex	!	!	!	!	!
4c\	.	X 6	4ee\	.	4.aa\	.	(>4c\	des-	4.aa\	dex-	1ryy	1ryy
4A\	.	.	4cc\	.	.	.	4A\)	.	.	.	.	.
.	.	.	.	.	8aa\	.	.	.	8aa\	-te-	.	.
4c\	.	.	4ee\	.	2aa\	.	4c\	-te-	2aa\	-ram	.	.
4d\	.	.	4ff\	.	.	.	4d\	-ram	.	.	.	.
!	!	!	!	!	!LO:LB:g=original	!	!	!	!	!	!	!
=144	=144	=144	=144	=144	=144	=144	=144	=144	=144	=144	=144	=144
2e\	.	X #	4.b/	.	2gg#X\	.	2e\	Pa-	2gg#X\	Pa-	1ryy	1ryy
.	.	.	8b/	.	.	.	.	.	.	.	.	.
2e\	.	.	2b/	.	2gg#\	.	2e\	-tris	2gg#\	-tris	.	.
=145	=145	=145	=145	=145	=145	=145	=145	=145	=145	=145	=145	=145
1r;	.	.	1r;>	.	1r;>	.	1r;>	.	1r;>	.	1ryy	1ryy
!LO:LB:g=original	!	!	!	!	!	!	!	!	!	!	!	!
=146	=146	=146	=146	=146	=146	=146	=146	=146	=146	=146	=146	=146
!LO:TX:a:i:t=Adagio	!	!	!LO:TX:a:i:t=adagio	!	!LO:TX:a:i:t=Adagio	!	!	!	!	!	!	!
2.F#X\	.	.	2.a/	.	2.dd#X\	.	2.F#X\	mi-	2.b\	mi-	1ryy	1ryy
4F#\	.	.	4a/	.	4dd#\	.	4F#\	-se-	4b\	-se-	.	.
=147	=147	=147	=147	=147	=147	=147	=147	=147	=147	=147	=147	=147
!	!	!	!	!	!LO:SIC:s=2dd#	!	!	!	!	!	!	!
2Fn\	.	.	2a/	.	2dd\	.	2Fn\	-re-	2cc\	-re-	1ryy	1ryy
!	!	!	!	!	!LO:SIC:s=2dd#	!	!	!	!	!	!	!
2F\	.	.	2a;</	.	2dd;>\	.	2F\	-re	2cc;>\	-re	.	.
!	!	!	!LO:LB:g=original	!	!	!	!LO:LB:g=original	!	!	!	!	!
=148	=148	=148	=148	=148	=148	=148	=148	=148	=148	=148	=148	=148
2r	.	.	2r	.	2r;>	.	2r	.	2r	.	1ryy	1ryy
4E\	.	X #	4g#X/	.	4ddn\	.	4E\	mi-	4b\	mi-	.	.
4E\	.	X 5	4g#/	.	4dd\	.	4E\	-se-	4b\	-se-	.	.
!	!	!	!	!	!	!	!	!	!LO:LB:g=original	!	!	!
=149	=149	=149	=149	=149	=149	=149	=149	=149	=149	=149	=149	=149
!	!	!	!LO:SIC:s=4g#	!	!	!	!	!	!	!	!	!
4E\	.	.	4g/	.	4dd\	.	4E\	-re-	2b\	-re-	1ryy	1ryy
4G#X\	.	.	4e/	.	4b\	.	4G#X\	.	.	.	.	.
4A\	.	.	4ee\	.	4cc\	.	4A\	-re	(>4cc\	-re	.	.
4D\	.	.	4ff\	.	4aa\	.	4D\	.	4b\)	.	.	.
=150	=150	=150	=150	=150	=150	=150	=150	=150	=150	=150	=150	=150
*	*	*reverse	*	*	*	*	*	*	*	*	*	*
1E	.	5 4#	1b	.	2dd/	.	1E	no-	1bt	no-	1ryy	1ryy
.	.	.	.	.	2gg#X\	.	.	.	.	.	.	.
=151	=151	=151	=151	=151	=151	=151	=151	=151	=151	=151	=151	=151
1AA;>	.	X #	1ee 1cc#X	.	1aa;>	.	1AA	-bis	2cc#X\	-bis	1ryy	1ryy
.	.	.	.	.	.	.	.	.	2r;>	.	.	.
!LO:LB:g=original	!	!	!	!	!	!	!	!	!	!	!LO:LB:g=original	!LO:LB:g=original
=152||;	=152||	=152||;	=152||	=152||	=152||	=152||	=152||;	=152||	=152||	=152||	=152||	=152||
*k[f#c#]	*	*	*k[f#c#]	*	*k[f#c#]	*	*k[f#c#]	*	*k[f#c#]	*	*k[f#c#]	*k[f#c#]
*M4/4	*	*	*M4/4	*	*M4/4	*	*M4/4	*	*M4/4	*	*M4/4	*M4/4
*met(c)	*	*	*met(c)	*	*met(c)	*	*met(c)	*	*met(c)	*	*met(c)	*met(c)
!LO:TX:t=P:problem=mixed beam	!	!	!	!	!	!	!	!	!	!	!	!
!LO:TX:b:i:t=Quoniam	!	!	!	!	!	!	!	!	!	!	!LO:TX:b:i:t=Quoniam	!LO:TX:b:i:t=Quoniam
!LO:TX:a:i:t=Solo	!	!	!LO:TX:a:i:t=Allo	!	!LO:TX:b:i:t=Quoniam	!	!LO:TX:a:i:t=Solo	!	!	!	!LO:TX:t=P:problem=mixed beam	!LO:TX:t=P:problem=mixed beam
!LO:TX:a:i:t=Vivace	!	!	!LO:TX:b:i:t=Quoniam	!	!LO:TX:a:i:t=Allo&colon;	!	!LO:TX:a:i:t=Allo&colon;	!	!LO:TX:a:i:t=Tutti	!	!LO:TX:a:i:t=Allo&colon;	!LO:TX:a:i:t=Allo&colon;
!	!	!	!	!	!	!	!	!	!LO:TX:a:t=P:problem=w źródle kolejność i wysokość znaków przyklucozwych - f# cc#	!	!	!
8.d\L	.	.	4dd\	.	4dd\	.	00r	.	00r	.	8.dd\L	8.dd\L
16D/Jk	.	.	.	.	.	.	.	.	.	.	16d/Jk	16d/Jk
4D\	.	.	16a/LL	.	16a/LL	.	.	.	.	.	4d/	4d/
.	.	.	16g/	.	16g/	.	.	.	.	.	.	.
.	.	.	16f#/	.	16f#/	.	.	.	.	.	.	.
.	.	.	16e/JJ	.	16e/JJ	.	.	.	.	.	.	.
!	!	!	!LO:TX:t=P:problem=mixed beam	!	!LO:TX:t=P:problem=mixed beam	!	!	!	!	!	!	!
8r	.	.	8d/L	.	8d/L	.	.	.	.	.	2r	4r
8d\L|	.	.	8dd\	.	8dd\|	.	.	.	.	.	.	.
8c#\|	.	.	8cc#\	.	8cc#\|	.	.	.	.	.	.	8r
8d\J|	.	.	8dd\J	.	8dd\J|	.	.	.	.	.	.	8dd\
=153	=153	=153	=153	=153	=153	=153	=153	=153	=153	=153	=153	=153
4B\	.	X 6	4gg\	.	4gg\|	.	.	.	.	.	2r	4gg\|
4A\	.	X 6	4ff#\	.	4ff#\|	.	.	.	.	.	.	4ff#\|
8r	.	.	8r	.	8r	.	.	.	.	.	4r	4r
8d\L|	.	.	8dd\L	.	8dd\L	.	.	.	.	.	.	.
8c#\|	.	.	8cc#\	.	8cc#\	.	.	.	.	.	8r	8r
8d\J|	.	.	8dd\J	.	8dd\J	.	.	.	.	.	8dd\	8ff#\
=154	=154	=154	=154	=154	=154	=154	=154	=154	=154	=154	=154	=154
.	.	.	.	.	.	.	.	.	.	.	16qqee/LL	16qqgg/LL
.	.	.	.	.	.	.	.	.	.	.	16qqff#/JJ	16qqaa/JJ
4G\	.	.	4bb\	.	4bb\	.	.	.	.	.	4gg\	4bb\
4F#\	.	.	4aa\	.	4aa\	.	.	.	.	.	4ff#\	4aa\
8r	.	.	8gg\L	.	8gg\L	.	.	.	.	.	8ee\L	8gg\L
8C#/	.	.	16ff#\L	.	16ff#\L	.	.	.	.	.	16dd\L	16ff#\L
.	.	.	16ee\JJ	.	16ee\JJ	.	.	.	.	.	16a\JJ	16ee\JJ
!	!	!	!	!	!	!	!	!	!	!	!LO:TX:t=P:problem=mixed beam	!
.	.	.	8qqgg/	.	8qqgg/	.	.	.	.	.	.	8qqgg/
8D\L	.	.	8ff#\L	.	8ff#\L	.	.	.	.	.	8dd\L	8ff#\L
8G\J	.	.	16ee\L	.	16ee\L	.	.	.	.	.	8f#/J	16ee\L
.	.	.	16dd\JJ	.	16dd\JJ	.	.	.	.	.	.	16dd\JJ
=155	=155	=155	=155	=155	=155	=155	=155	=155	=155	=155	=155	=155
!LO:TX:t=P:problem=mixed beam	!	!	!LO:TX:t=P:problem=mixed beam	!	!	!	!	!	!	!	!	!LO:TX:t=P:problem=mixed beam
8A\L	.	.	8ee\L	.	8ee\L	.	.	.	.	.	8a/L	8ee\L
16AA/L	.	.	16a/L	.	16a\L	.	.	.	.	.	16a/L	16a/L
16AA/JJ	.	.	16a/JJ	.	16a\JJ	.	.	.	.	.	16a/JJ	16a/JJ
8AA/L	.	.	8a/L	.	8a/L	.	.	.	.	.	8a/L	8a/L
8AA/J	.	.	8a/J	.	8a/J	.	.	.	.	.	8a/J	8a/J
!	!	!	!	!	!LO:LB:g=original	!	!	!	!	!	!	!
4AA/	.	.	8a/	.	8a/	.	.	.	.	.	4a/	4a/
.	.	.	4ff#\	.	4aa\	.	.	.	.	.	.	.
4r	.	.	.	.	.	.	.	.	.	.	4r	4r
.	.	.	(>16ee\LL	.	(>16gg\LL	.	.	.	.	.	.	.
.	.	.	16dd\JJ)	.	16ff#\JJ)	.	.	.	.	.	.	.
=156	=156	=156	=156	=156	=156	=156	=156	=156	=156	=156	=156	=156
!	!	!	!LO:TX:t=P:problem=mixed beam	!	!LO:TX:t=P:problem=mixed beam	!	!	!	!	!	!	!
8r	.	.	8ee\L	.	8gg\L	.	00r	.	00r	.	8r	8r
16AA/LL	.	.	16a/L	.	16a/L	.	.	.	.	.	16a/LL	16a/LL
16AA/JJ	.	.	16a/JJ	.	16a/JJ	.	.	.	.	.	16a/JJ	16a/JJ
8AA/L	.	.	8a/L	.	8a/L	.	.	.	.	.	8a/L	8a/L
8AA/J	.	.	8a/J	.	8a/J	.	.	.	.	.	8a/J	8a/J
4AA/	.	.	8a/	.	8a/	.	.	.	.	.	4a/	4a/
.	.	.	4ee\	.	4gg\	.	.	.	.	.	.	.
4r	.	.	.	.	.	.	.	.	.	.	4r	4r
.	.	.	(>16dd\LL	.	(>16ff#\LL	.	.	.	.	.	.	.
.	.	.	16cc#\JJ)	.	16ee\JJ)	.	.	.	.	.	.	.
=157	=157	=157	=157	=157	=157	=157	=157	=157	=157	=157	=157	=157
!	!	!	!	!	!LO:TX:t=P:problem=mixed beam	!	!	!	!	!	!	!
8r	.	.	8dd\L	.	8ff#\L	.	.	.	.	.	8r	8r
16AA/LL	.	6 4	16a\L	.	16a/L	.	.	.	.	.	16a/LL	16a/LL
16AA/JJ	.	.	16a\JJ	.	16a/JJ	.	.	.	.	.	16a/JJ	16a/JJ
8AA/L	.	.	8a/L	.	8a/L	.	.	.	.	.	8a/L	8a/L
8AA/J	.	.	8a/J	.	8a/J	.	.	.	.	.	8a/J	8a/J
4AA/	.	.	8a/	.	8a/	.	.	.	.	.	4a/	4a/
.	.	.	4dd\	.	4ff#\	.	.	.	.	.	.	.
4r	.	.	.	.	.	.	.	.	.	.	4r	4r
.	.	.	(>16cc#\LL	.	(>16ee\LL	.	.	.	.	.	.	.
.	.	.	16b\JJ)	.	16dd\JJ)	.	.	.	.	.	.	.
!	!	!	!LO:LB:g=original	!	!	!	!	!	!	!	!	!
=158	=158	=158	=158	=158	=158	=158	=158	=158	=158	=158	=158	=158
4A\	.	X 3_	8.cc#\L	.	8.cc#\L	.	.	.	.	.	1r	1r
.	.	.	16bb\Jk	.	16bb\Jk	.	.	.	.	.	.	.
4G\	.	X X	8.aa\L	.	8.aa\L	.	.	.	.	.	.	.
.	.	.	16cc#\Jk	.	16cc#\Jk	.	.	.	.	.	.	.
4F#\	.	X 6	8.dd\L	.	8.dd\L	.	.	.	.	.	.	.
.	.	.	16bb\Jk	.	16bb\Jk	.	.	.	.	.	.	.
4E\	.	X 6\	8.aa\L	.	8.aa\L	.	.	.	.	.	.	.
.	.	.	16cc#\Jk	.	16cc#\Jk	.	.	.	.	.	.	.
=159	=159	=159	=159	=159	=159	=159	=159	=159	=159	=159	=159	=159
8d\L	.	.	8dd\L|	.	8dd\L	.	.	.	.	.	2r	2r
16c#\L	.	.	16cc#\L|	.	16cc#\L	.	.	.	.	.	.	.
16B\JJ	.	.	16b\JJ|	.	16b\JJ	.	.	.	.	.	.	.
8A\L	.	.	8a/L|	.	8a/L	.	.	.	.	.	.	.
8F#\J	.	.	8f#/J|	.	8f#/J	.	.	.	.	.	.	.
4G\	.	.	4g/	.	4g/	.	.	.	.	.	4r	4r
4A\	.	.	4a/	.	4a/	.	.	.	.	.	4a/	4a/
!LO:LB:g=original	!	!	!	!	!	!	!	!	!	!	!	!
=160	=160	=160	=160	=160	=160	=160	=160	=160	=160	=160	=160	=160
*	*	*	*^	*	*	*	*	*	*	*	*	*
!	!LO:DY:a:t=p&colon;:rj	!	!	!	!	!	!LO:DY:a	!	!	!	!	!LO:TX:t=P:problem=mixed beam	!
8.D\L	p	.	4dd\	4d/	.	4dd\	p	8.d\	Quo-	00r	.	8.dd\L	8.d/L
16D\Jk	.	.	.	.	.	.	.	16D/	-ni-	.	.	16d/Jk	16d/Jk
4D\	.	.	4r	4ryy	.	16a/LL	.	4D/	-am	.	.	4d/	4d/
.	.	.	.	.	.	16g/	.	.	.	.	.	.	.
.	.	.	.	.	.	16f#/	.	.	.	.	.	.	.
.	.	.	.	.	.	16e/JJ	.	.	.	.	.	.	.
!	!	!	!	!	!	!LO:TX:t=P:problem=mixed beam	!	!	!	!	!	!	!
8r	.	.	2r	2ryy	.	8d/L	.	8r	.	.	.	2r	2r
8d\L|	.	.	.	.	.	8dd\|	.	8d\	tu	.	.	.	.
8c#\|	.	.	.	.	.	8cc#\|	.	8c#\	So-	.	.	.	.
8d\J|	.	.	.	.	.	8dd\J|	.	8d\	-lus	.	.	.	.
*	*	*	*v	*v	*	*	*	*	*	*	*	*	*
=161	=161	=161	=161	=161	=161	=161	=161	=161	=161	=161	=161	=161
4B\	.	X 6	4dd\	.	4gg\	.	4B\	San-	.	.	4r	4r
4A\	.	X 6	16a/LL	.	4ff#\	.	4A\	-ctus	.	.	8r	8r
.	.	.	16g/	.	.	.	.	.	.	.	.	.
.	.	.	16f#/	.	.	.	.	.	.	.	16d/LL	16d/LL
.	.	.	16e/JJ	.	.	.	.	.	.	.	16d/JJ	16d/JJ
8r	.	.	4d/	.	8r	.	8r	.	.	.	4d/	4d/
8d\L|	.	.	.	.	8dd\L	.	8d\	tu	.	.	.	.
8c#\|	.	.	4r	.	8cc#\	.	8c#\	So-	.	.	4r	4r
8d\J|	.	.	.	.	8dd\J	.	8d\	-lus	.	.	.	.
!	!	!	!	!	!	!	!LO:LB:g=original	!	!	!	!LO:LB:g=original	!LO:LB:g=original
=162	=162	=162	=162	=162	=162	=162	=162	=162	=162	=162	=162	=162
4G\	.	.	4dd\	.	4bb\	.	8.G\	Do-	.	.	4r	4r
.	.	.	.	.	.	.	16G\	-mi-	.	.	.	.
4F#\	.	.	16a/LL	.	4aa\	.	4F#\	-nus	.	.	8r	8r
.	.	.	16g/	.	.	.	.	.	.	.	.	.
.	.	.	16f#/	.	.	.	.	.	.	.	16d/LL	16d/LL
.	.	.	16e/JJ	.	.	.	.	.	.	.	16d/JJ	16d/JJ
8r	.	.	8d/	.	8r	.	8r	.	.	.	4d/	4d/
8d\L	.	.	8r	.	8dd\L	.	8d\	So-	.	.	.	.
8c#\	.	.	8a/	.	8cc#\	.	8c#\	-lus	.	.	4r	4r
8d\J	.	.	8r	.	8dd\J	.	8d\	al-	.	.	.	.
=163	=163	=163	=163	=163	=163	=163	=163	=163	=163	=163	=163	=163
4E\	.	.	8cc#\	.	4gg\	.	8.E\	-tiſ-	.	.	1r	1r
.	.	.	8r	.	.	.	.	.	.	.	.	.
.	.	.	.	.	.	.	16E\	-si-	.	.	.	.
4D\	.	.	8a/	.	4ff#\	.	4D\	-mus	.	.	.	.
.	.	.	8ryy	.	.	.	.	.	.	.	.	.
.	.	.	.	.	16qqff#/LL	.	.	.	.	.	.	.
.	.	.	.	.	16qqgg/JJ	.	.	.	.	.	.	.
4F#\	.	X 5	4dd\|	.	8aa\L	.	4F#\	je-	.	.	.	.
.	.	.	.	.	16gg\L	.	.	.	.	.	.	.
.	.	.	.	.	16ff#\JJ	.	.	.	.	.	.	.
4G\	.	6 5	4b\|	.	8ee\L	.	4G\	-su	.	.	.	.
.	.	.	.	.	8dd\J	.	.	.	.	.	.	.
!	!	!	!	!	!LO:LB:g=original	!	!	!	!	!	!	!
=164	=164	=164	=164	=164	=164	=164	=164	=164	=164	=164	=164	=164
4A\	.	.	4e/	.	4cc#t\	.	4A\	Chri-	00r	.	8r	8r
.	.	.	.	.	.	.	.	.	.	.	16a/LL	16a/LL
.	.	.	.	.	.	.	.	.	.	.	16a/JJ	16a/JJ
!LO:TX:t=P:problem=mixed beam	!	!	!	!	!	!	!	!	!	!	!	!
8AA/L	.	.	8a/	.	16a\LL	.	8AA/	.	.	.	4a/	4a/
.	.	.	.	.	16cc#\	.	.	.	.	.	.	.
8A\J	.	.	8r	.	16ee\	.	8A\	-ste	.	.	.	.
.	.	.	.	.	16gg\JJ	.	.	.	.	.	.	.
8.d\L	.	.	8ff#\	.	8ff#\	.	8.d\L	je-	.	.	4r	2r
.	.	.	8r	.	8r	.	.	.	.	.	.	.
16c#\K	.	.	.	.	.	.	16c#\K	.	.	.	.	.
8.B\	.	.	4ryy	.	8ddd\	.	8.B\	.	.	.	4r	.
.	.	.	.	.	8r	.	.	.	.	.	.	.
16A\Jk	.	.	.	.	.	.	16A\Jk	.	.	.	.	.
=165	=165	=165	=165	=165	=165	=165	=165	=165	=165	=165	=165	=165
8G#X\L	.	X 5	8b\L	.	4ff#\	.	8G#X\L	.	.	.	0r	0r
16A\L	.	.	16cc#\L	.	.	.	16A\L	.	.	.	.	.
16B\JJ	.	.	16dd\JJ	.	.	.	16B\JJ	.	.	.	.	.
*	*	*Xreverse	*	*	*	*	*	*	*	*	*	*
!LO:TX:t=P:problem=mixed beam	!	!	!	!	!	!	!LO:TX:t=P:problem=mixed beam	!	!	!	!	!
8c#\L	.	X 3#	8g#X/L	.	2ee\	.	8c#\L	.	.	.	.	.
8C#/J	.	.	8g#/J	.	.	.	8C#/J	.	.	.	.	.
8F#\L	.	.	8a/L	.	.	.	8F#\L	.	.	.	.	.
16G#X\L	.	.	16b/L	.	.	.	16G#X\L	.	.	.	.	.
16A\JJ	.	.	16cc#/JJ	.	.	.	16A\JJ	.	.	.	.	.
!LO:TX:t=P:problem=mixed beam	!	!	!	!	!	!	!LO:TX:t=P:problem=mixed beam	!	!	!	!	!
8B\L	.	.	8f#/L	.	[<4dd\	.	8B\L	.	.	.	.	.
8BB/J	.	.	8f#/J	.	.	.	8BB/J	.	.	.	.	.
!	!	!	!LO:LB:g=original	!	!	!	!	!	!	!	!	!
=166	=166	=166	=166	=166	=166	=166	=166	=166	=166	=166	=166	=166
8E\L	.	.	8g/L	.	4dd\]	.	8E\L	.	.	.	.	.
16F#\L	.	.	16a/L	.	.	.	16F#\L	.	.	.	.	.
16G#X\JJ	.	.	16b/JJ	.	.	.	16G#X\JJ	.	.	.	.	.
!LO:TX:t=P:problem=mixed beam	!	!	!	!	!	!	!LO:TX:t=P:problem=mixed beam	!	!	!	!	!
8A\L	.	.	8e/L	.	4cc#\	.	8A\L	.	.	.	.	.
8AA/J	.	.	8e/J	.	.	.	8AA/J	.	.	.	.	.
!LO:TX:t=P:problem=mixed beam	!	!	!	!	!	!	!LO:TX:t=P:problem=mixed beam	!	!	!	!	!
8D/L	.	.	4f#/	.	2r	.	8D/L	.	.	.	.	.
8d\	.	.	.	.	.	.	8d\	.	.	.	.	.
8c#\	.	.	4r	.	.	.	8c#\	.	.	.	.	.
8B\J	.	.	.	.	.	.	8B\J	.	.	.	.	.
!	!	!	!	!	!	!	!LO:LB:g=original	!	!	!	!	!
=167	=167	=167	=167	=167	=167	=167	=167	=167	=167	=167	=167	=167
8.e\L	.	.	1r	.	1r	.	8.e\L	.	.	.	4r	4r
16G#X\Jk	.	.	.	.	.	.	16G#X\Jk	.	.	.	.	.
8A\L	.	.	.	.	.	.	8A\	.	.	.	8r	8r
8D#X\J	.	.	.	.	.	.	8D#X\	-su	.	.	8ff#\	8aa\
*	*	*	*	*	*	*	*	*	*	*	*2\right	*
!LO:LB:g=original	!	!	!	!	!	!	!	!	!	!	!	!
4E\	.	.	.	.	.	.	2ET\	Chri-	.	.	2eeT\	4aa\
4EE/	.	.	.	.	.	.	.	.	.	.	.	4gg#Xt\
=168	=168	=168	=168	=168	=168	=168	=168	=168	=168	=168	=168	=168
!LO:TX:t=P:problem=mixed beam	!LO:DY:a:t=for	!	!	!LO:DY:a:t=f&colon;:rj	!	!LO:DY:a:t=for	!	!	!	!	!	!LO:TX:t=P:problem=mixed beam
8.A\L	f	.	4aa\	f	4aa\	f	4AA/	-ste	00r	.	8.ee\L	8.aa\L
16AA/Jk	.	.	.	.	.	.	.	.	.	.	16a\Jk	16a/Jk
4AA/	.	.	16ee\LL	.	16ee\LL	.	4r	.	.	.	4a/	4a/
.	.	.	16dd\	.	16dd\	.	.	.	.	.	.	.
.	.	.	16cc#\	.	16cc#\	.	.	.	.	.	.	.
.	.	.	16b\JJ	.	16b\JJ	.	.	.	.	.	.	.
!	!	!	!LO:TX:t=P:problem=mixed beam	!	!	!	!	!	!	!	!	!
8r	.	.	8a/L	.	8a/L	.	2r	.	.	.	2r	2r
8A\L	.	.	8aa\	.	8a/	.	.	.	.	.	.	.
8G#X\	.	.	8gg#X\	.	8g#X/	.	.	.	.	.	.	.
8A\J	.	.	8aa\J	.	8a/J	.	.	.	.	.	.	.
=169	=169	=169	=169	=169	=169	=169	=169	=169	=169	=169	=169	=169
4F#\	.	.	4dd\	.	4dd\	.	00r	.	.	.	4r	4r
4E\	.	.	4cc#\	.	4cc#\	.	.	.	.	.	8r	8r
.	.	.	.	.	.	.	.	.	.	.	16a/LL	16a/LL
.	.	.	.	.	.	.	.	.	.	.	16a/JJ	16a/JJ
4D\	.	.	8r	.	8r	.	.	.	.	.	4a/	4a/
.	.	.	16ff#\LL	.	16ff#\LL	.	.	.	.	.	.	.
.	.	.	16ee\JJ	.	16ee\JJ	.	.	.	.	.	.	.
8BB/L	.	.	16dd\LL	.	16dd\LL	.	.	.	.	.	4r	4r
.	.	.	16cc#\	.	16cc#\	.	.	.	.	.	.	.
8D/J	.	.	16b\	.	16b\	.	.	.	.	.	.	.
.	.	.	16a\JJ	.	16a\JJ	.	.	.	.	.	.	.
=170	=170	=170	=170	=170	=170	=170	=170	=170	=170	=170	=170	=170
8E\L	.	.	8g#X/L	.	8g#X/L	.	.	.	.	.	8r	8r
16E\L	.	.	16e/L	.	16e/L	.	.	.	.	.	16ee\LL	16ee\LL
16E\JJ	.	.	16e/JJ	.	16e/JJ	.	.	.	.	.	16ee\JJ	16ee\JJ
8E\L	.	.	8e/L	.	8e/L	.	.	.	.	.	8ee\L	8ee\L
8E\J	.	.	8e/J	.	8e/J	.	.	.	.	.	8ee\J	8ee\J
4E\	.	.	8e/	.	8e/	.	.	.	.	.	4ee\	4ee\
.	.	.	4cc#\	.	4ee\	.	.	.	.	.	.	.
4r	.	.	.	.	.	.	.	.	.	.	4r	4r
.	.	.	(>16b\LL	.	(>16dd\LL	.	.	.	.	.	.	.
.	.	.	16a\JJ)	.	16cc#\JJ)	.	.	.	.	.	.	.
=171	=171	=171	=171	=171	=171	=171	=171	=171	=171	=171	=171	=171
!	!	!	!	!	!LO:TX:t=P:problem=mixed beam	!	!	!	!	!	!	!
8r	.	.	8b/L	.	8dd\L	.	.	.	.	.	8r	8r
16E\LL	.	.	16e/L	.	16e/L	.	.	.	.	.	16ee\LL	16ee\LL
16E\JJ	.	.	16e/JJ	.	16e/JJ	.	.	.	.	.	16ee\JJ	16ee\JJ
8E\L	.	.	8e/L	.	8e/L	.	.	.	.	.	8ee\L	8ee\L
8E\J	.	.	8e/J	.	8e/J	.	.	.	.	.	8ee\J	8ee\J
4E\	.	.	8e/	.	8e/	.	.	.	.	.	4ee\	4ee\
.	.	.	4b\	.	4dd\	.	.	.	.	.	.	.
4r	.	.	.	.	.	.	.	.	.	.	4r	4r
.	.	.	(<16a/LL	.	(>16cc#\LL	.	.	.	.	.	.	.
.	.	.	16g#X/JJ)	.	16b\JJ)	.	.	.	.	.	.	.
=172	=172	=172	=172	=172	=172	=172	=172	=172	=172	=172	=172	=172
!	!	!	!	!	!LO:TX:t=P:problem=mixed beam	!	!	!	!	!	!	!
8r	.	.	8a/L	.	8cc#\L	.	.	.	00r	.	8r	8r
16E\LL	.	.	16e/L	.	16e/L	.	.	.	.	.	16ee\LL	16ee\LL
16E\JJ	.	.	16e/JJ	.	16e/JJ	.	.	.	.	.	16ee\JJ	16ee\JJ
8E\L	.	.	8e/L	.	8e/L	.	.	.	.	.	8ee\L	8ee\L
8E\J	.	.	8e/J	.	8e/J	.	.	.	.	.	8ee\J	8ee\J
4E\	.	.	8e/	.	8e/	.	.	.	.	.	4ee\	4ee\
.	.	.	4a/	.	4cc#\	.	.	.	.	.	.	.
4r	.	.	.	.	.	.	.	.	.	.	4r	4r
.	.	.	(<16g#X/LL	.	(>16b\LL	.	.	.	.	.	.	.
.	.	.	16f#/JJ)	.	16a\JJ)	.	.	.	.	.	.	.
!	!	!	!	!	!LO:LB:g=original	!	!	!	!	!	!	!
=173	=173	=173	=173	=173	=173	=173	=173	=173	=173	=173	=173	=173
!	!	!	!LO:SIC:s=8.g#	!	!	!	!	!	!	!	!	!
!	!	!	!LO:TX:t=P:problem=mixed beam	!	!LO:TX:t=P:problem=mixed beam	!	!	!	!	!	!	!
4E\	.	.	8.g/L	.	8.g#X/L	.	0r	.	.	.	0r	0r
.	.	.	16ff#\Jk	.	16ff#\Jk	.	.	.	.	.	.	.
!	!	!	!LO:TX:t=P:problem=mixed beam	!	!LO:TX:t=P:problem=mixed beam	!	!	!	!	!	!	!
4D\	.	.	8.ee\L	.	8.ee\L	.	.	.	.	.	.	.
!	!	!	!LO:SIC:s=16g#	!	!	!	!	!	!	!	!	!
.	.	.	16g/Jk	.	16g#/Jk	.	.	.	.	.	.	.
!	!	!	!LO:LB:g=original	!	!	!	!	!	!	!	!	!
!	!	!	!LO:TX:t=P:problem=mixed beam	!	!LO:TX:t=P:problem=mixed beam	!	!	!	!	!	!	!
4C#/	.	.	8.a/L	.	8.a/L	.	.	.	.	.	.	.
.	.	.	16ff#\Jk	.	16ff#\Jk	.	.	.	.	.	.	.
!	!	!	!LO:TX:t=P:problem=mixed beam	!	!LO:TX:t=P:problem=mixed beam	!	!	!	!	!	!	!
4BB/	.	.	8.ee\L	.	8.ee\L	.	.	.	.	.	.	.
!	!	!	!LO:TX:t=P:problem=♯ below	!	!	!	!	!	!	!	!	!
.	.	.	16g#X/Jk	.	16g#X/Jk	.	.	.	.	.	.	.
=174	=174	=174	=174	=174	=174	=174	=174	=174	=174	=174	=174	=174
8A\L|	.	.	8a/L|	.	8a/L	.	.	.	.	.	.	.
16G#X\L|	.	.	16g#X/L|	.	16g#X/L	.	.	.	.	.	.	.
16F#\JJ|	.	.	16f#/JJ|	.	16f#/JJ	.	.	.	.	.	.	.
8E\L|	.	.	8e/L|	.	8e/L	.	.	.	.	.	.	.
8C#\J|	.	.	8c#/J|	.	8c#/J	.	.	.	.	.	.	.
4D\	.	.	4d/|	.	4d/	.	.	.	.	.	.	.
4E\	.	.	4e/|	.	4eT/	.	.	.	.	.	.	.
!	!	!	!	!	!	!	!	!	!	!	!LO:LB:g=original	!
=175	=175	=175	=175	=175	=175	=175	=175	=175	=175	=175	=175	=175
!LO:TX:t=P:problem=mixed beam	!LO:DY:a:t=p&colon;	!	!	!LO:DY:a:t=p&colon;:rj	!	!LO:DY:a:t=p&colon;	!	!	!	!	!LO:TX:t=P:problem=brak taktu	!
8.A\L	p	.	4aa\	p	4a/	p	8.A\	Quo-	.	.	1ryy	1r
16AA/Jk	.	.	.	.	.	.	16AA/	-ni-	.	.	.	.
4AA/	.	.	16ee\LL	.	16e/LL	.	4AA/	-am	.	.	.	.
.	.	.	16dd\	.	16d/	.	.	.	.	.	.	.
.	.	.	16cc#\	.	16c#/	.	.	.	.	.	.	.
.	.	.	16b\JJ	.	16B/JJ	.	.	.	.	.	.	.
!LO:LB:g=original	!	!	!	!	!LO:TX:t=P:problem=mixed beam	!	!	!	!	!	!	!
8r	.	.	8a\L	.	8A/L	.	8r	.	.	.	.	.
8A\L	.	.	8cc#\	.	8aa\	.	8A\	tu	.	.	.	.
8B\	.	.	8dd\	.	8gg#X\	.	8B\	so-	.	.	.	.
8c#\J	.	.	8ee\J	.	8aa\J	.	8c#\	-lus	.	.	.	.
!	!	!	!	!	!	!	!	!	!	!	!	!LO:LB:g=original
=176	=176	=176	=176	=176	=176	=176	=176	=176	=176	=176	=176	=176
4d\	.	.	4a/	.	4ff#\	.	4d\	San-	00r	.	8r	8r
.	.	.	.	.	.	.	.	.	.	.	16a/LL	16a/LL
.	.	.	.	.	.	.	.	.	.	.	16a/JJ	16a/JJ
4c#\	.	.	4a/	.	4ee\	.	4c#\	-ctus	.	.	8a/L	8a/L
.	.	.	.	.	.	.	.	.	.	.	8a/J	8a/J
8r	.	.	16aa\LL	.	16aa\LL	.	8r	.	.	.	4a/	4a/
.	.	.	16gg#X\	.	16gg#X\	.	.	.	.	.	.	.
8c#\L	.	.	16ff#\	.	16ff#\	.	8c#\	tu	.	.	.	.
.	.	.	16ee\JJ	.	16ee\JJ	.	.	.	.	.	.	.
8B\	.	.	16dd\LL	.	16dd\LL	.	8B\	So-	.	.	4r	4r
.	.	.	16cc#\	.	16cc#\	.	.	.	.	.	.	.
8A\J	.	.	16b\	.	16b\	.	8A\	-lus	.	.	.	.
.	.	.	16a\JJ	.	16a\JJ	.	.	.	.	.	.	.
=177	=177	=177	=177	=177	=177	=177	=177	=177	=177	=177	=177	=177
4e\	.	.	4aa\	.	4ccc#\	.	8.e\	Do-	.	.	4r	4r
.	.	.	.	.	.	.	16E\	-mi-	.	.	.	.
4E\	.	.	4gg#X\	.	4bb\	.	4E\	-nus	.	.	8r	8r
.	.	.	.	.	.	.	.	.	.	.	16ee\LL	16ee\LL
.	.	.	.	.	.	.	.	.	.	.	16ee\JJ	16ee\JJ
4A\	.	.	8r	.	8r	.	4A\	je-	.	.	4ee\	4ee\
.	.	.	(>8cc#\L	.	(>8ee\L	.	.	.	.	.	.	.
4D\	.	.	8b\	.	8dd\	.	4D\	-su	.	.	4r	4r
.	.	.	8a\J)	.	8cc#\J)	.	.	.	.	.	.	.
=178	=178	=178	=178	=178	=178	=178	=178	=178	=178	=178	=178	=178
8E\L	.	.	16g#X/LL	.	16b\LL	.	(>8E\L	je-	.	.	00r	00r
.	.	.	16b/	.	16gg#X\	.	.	.	.	.	.	.
8D\	.	.	16a/	.	16ff#\	.	8D\J)	.	.	.	.	.
.	.	.	16b/JJ	.	16gg#\JJ	.	.	.	.	.	.	.
8C#\	.	.	8.cc#\L	.	8aa\L	.	(>8C#\L	-su	.	.	.	.
8D\J	.	.	.	.	8dd\J	.	8D\J)	.	.	.	.	.
.	.	.	16b\Jk	.	.	.	.	.	.	.	.	.
!	!	!	!	!	!	!	!LO:LB:g=original	!	!	!	!	!
4E\	.	.	4a/	.	4cc#\	.	2E\	Chi-	.	.	.	.
4EE/	.	.	4g#X/	.	4bT\	.	.	.	.	.	.	.
=179	=179	=179	=179	=179	=179	=179	=179	=179	=179	=179	=179	=179
4AA/	.	.	16a\LL	.	16a\LL	.	4AA/	-ste	.	.	.	.
.	.	.	16cc#\	.	16ee\	.	.	.	.	.	.	.
.	.	.	16dd\	.	16ff#\	.	.	.	.	.	.	.
.	.	.	16ee\JJ	.	16ggn\JJ	.	.	.	.	.	.	.
!	!	!	!LO:TX:t=P:problem=mixed beam	!	!	!	!	!	!	!	!	!
8r	.	.	8ff#\L	.	8aa\L	.	8r	.	.	.	.	.
8A\	.	.	8a/J	.	8cc#\J	.	8A\	je-	.	.	.	.
8B\L	.	.	4a/	.	4dd\	.	8B\L	.	.	.	.	.
16c#\L	.	.	.	.	.	.	16c#\L	.	.	.	.	.
16d\JJ	.	.	.	.	.	.	16d\JJ	.	.	.	.	.
!	!	!	!	!	!	!	!LO:TX:t=P:problem=mixed beam	!	!	!	!	!
8e\L	.	.	4dd\	.	[<4gg\	.	8e\L	.	.	.	.	.
8E\J	.	.	.	.	.	.	8E/J	.	.	.	.	.
=180	=180	=180	=180	=180	=180	=180	=180	=180	=180	=180	=180	=180
8A\L	.	.	2cc#\	.	4gg\]	.	8A\L	.	0r	.	.	.
16B\L	.	.	.	.	.	.	16B\L	.	.	.	.	.
16c#\JJ	.	.	.	.	.	.	16c#\JJ	.	.	.	.	.
!LO:TX:t=P:problem=mixed beam	!	!	!	!	!	!	!LO:TX:t=P:problem=mixed beam	!	!	!	!	!
8d\L	.	.	.	.	2ff#\	.	8d\L	.	.	.	.	.
8D/J	.	.	.	.	.	.	8D/J	.	.	.	.	.
8G\L	.	.	2b\	.	.	.	8G\L	.	.	.	.	.
16A\L	.	.	.	.	.	.	16A\L	.	.	.	.	.
16B\JJ	.	.	.	.	.	.	16B\JJ	.	.	.	.	.
!LO:TX:t=P:problem=mixed beam	!	!	!	!	!	!	!LO:TX:t=P:problem=mixed beam	!	!	!	!	!
8c#\L	.	.	.	.	[>4ee\	.	8c#\L	.	.	.	.	.
8C#/J	.	.	.	.	.	.	8C#/J	.	.	.	.	.
!	!	!	!	!	!LO:LB:g=original	!	!	!	!	!	!	!
=181	=181	=181	=181	=181	=181	=181	=181	=181	=181	=181	=181	=181
8F#\L	.	X 5	2a/	.	4ee\]	.	8F#\L	.	.	.	.	.
16G\L	.	.	.	.	.	.	16G\L	.	.	.	.	.
16A\JJ	.	.	.	.	.	.	16A\JJ	.	.	.	.	.
!LO:TX:t=P:problem=mixed beam	!	!	!	!	!	!	!LO:TX:t=P:problem=mixed beam	!	!	!	!	!
8B\L	.	X 5	.	.	2dd\	.	8B\L	.	.	.	.	.
8BB/J	.	.	.	.	.	.	8BB/J	.	.	.	.	.
8E\L	.	X 5	2g/	.	.	.	8E\	.	.	.	.	.
16F#\L	.	.	.	.	.	.	16F#\LL	-su	.	.	.	.
16G\JJ	.	.	.	.	.	.	16G\JJ	.	.	.	.	.
!LO:TX:t=P:problem=mixed beam	!	!	!	!	!	!	!	!	!	!	!	!
8A\L	.	X 5	.	.	4cc#\	.	4AT\	Chri-	.	.	.	.
8AA/J	.	.	.	.	.	.	.	.	.	.	.	.
=182	=182	=182	=182	=182	=182	=182	=182	=182	=182	=182	=182	=182
!	!	!	!LO:TX:t=P:problem=mixed beam	!	!	!	!	!	!	!	!	!
!LO:TX:a:i:t=Tutti	!	!	!LO:TX:a:i:t=Tutti	!	!LO:TX:a:i:t=Tutti	!	!	!	!	!	!LO:TX:a:i:t=Tutti	!
8D\L	.	.	8f#/L	.	8dd\L	.	8D\	-ste	8r	.	8r	8r
8D\	.	.	8aa\	.	8ff#\	.	8D\	cum	8dd\	Cum	8dd\L	8ff#\L
8F#\	.	.	8ff#\	.	8ff#\	.	8F#\	San-	8dd\	san-	8dd\	8ff#\
8D\J	.	.	8dd\J	.	8ff#\J	.	8D\	-cto	8dd\	-cto	8dd\J	8ff#\J
!	!	!	!LO:LB:g=original	!	!	!	!	!	!	!	!	!
8A\L	.	.	8cc#\L	.	8ee\L	.	8A\	Spi-	8cc#\	Spi-	4a/	4ee\
8A\	.	.	8ee\	.	8cc#\	.	8A\	-ri-	8cc#\	-ri-	.	.
8F#\	.	.	8dd\	.	8a\	.	8F#\	-tu	8dd\	-tu	4dd\	4ff#\
8D\J	.	.	8aa\J	.	8ff#\J	.	8D\	in	8dd\	in	.	.
!LO:LB:g=original	!	!	!	!	!	!	!	!	!	!	!	!
=183	=183	=183	=183	=183	=183	=183	=183	=183	=183	=183	=183	=183
8A\L	.	.	8cc#\L	.	8ee\L	.	8A\	glo-	8cc#\	glo-	8a\L	8ee\L
.	.	.	.	.	8qqdd/	.	.	.	.	.	.	.
8A\	.	.	8ee\	.	8cc#\J	.	16A\	-ri-	16dd\	-ri-	16dd\L	16ff#\L
.	.	.	.	.	.	.	16A\	-a	16ee\	-a	16ee\JJ	16gg\JJ
!	!	!	!	!	!LO:TX:t=P:problem=mixed beam	!	!	!	!	!	!	!
!	!	!	!	!	!	!	!LO:LB:g=original	!	!	!	!	!
8F#\	.	.	8dd\	.	16a/LL	.	8F#\	De-	8dd\	De-	8ff#\L	8aa\L
.	.	.	.	.	16aa\	.	.	.	.	.	.	.
8D\J	.	.	8a\J	.	16ff#\	.	8D\	-i	8dd\	-i	8dd\J	8ff#\J
.	.	.	.	.	16dd\JJ	.	.	.	.	.	.	.
!LO:TX:t=P:problem=mixed beam	!	!	!	!	!LO:TX:t=P:problem=mixed beam	!	!	!	!	!	!	!LO:TX:t=P:problem=mixed beam
8A\L	.	.	8cc#\L	.	8ee\L	.	8A\	Pa-	8cc#\	pa-	8a/L	8ee\L
16AA/L	.	.	16a\L	.	16a/L	.	8A\	-tris	8cc#\	-tris	16a/L	16a/L
16AA/JJ	.	.	16a\JJ	.	16a/JJ	.	.	.	.	.	16a/JJ	16a/JJ
8AA/L	.	.	8a/L	.	8a/L	.	4r	.	4r	.	8a/L	8a/L
8AA/J	.	.	8a/J	.	8a/J	.	.	.	.	.	8a/J	8a/J
!	!	!	!	!	!	!	!	!	!LO:LB:g=original	!	!	!
=184	=184	=184	=184	=184	=184	=184	=184	=184	=184	=184	=184	=184
4AA/	.	.	8a/	.	8a/	.	2r	.	2r	.	4a/	4a/
.	.	.	4ff#\	.	4aa\	.	.	.	.	.	.	.
4r	.	.	.	.	.	.	.	.	.	.	4r	4r
.	.	.	(>16ee\LL	.	(>16gg\LL	.	.	.	.	.	.	.
.	.	.	16dd\JJ)	.	16ff#\JJ)	.	.	.	.	.	.	.
!	!	!	!LO:TX:t=P:problem=mixed beam	!	!LO:TX:t=P:problem=mixed beam	!	!	!	!	!	!	!
8r	.	.	8ee\L	.	8gg\L	.	4A\	a-	4a\	a-	8r	8r
16AA/LL	.	.	16a/L	.	16a/L	.	.	.	.	.	16a/LL	16a/LL
16AA/JJ	.	.	16a/JJ	.	16a/JJ	.	.	.	.	.	16a/JJ	16a/JJ
8AA/L	.	.	8a/L	.	8a/L	.	4A\	-men	4a\	-men	8a/L	8a/L
8AA/J	.	.	8a/J	.	8a/J	.	.	.	.	.	8a/J	8a/J
=185	=185	=185	=185	=185	=185	=185	=185	=185	=185	=185	=185	=185
!	!	!	!	!	!	!	!	!	!	!	!LO:TX:t=P:problem=brak taktu	!
4AA/	.	.	8a/	.	8a/	.	2r	.	2r	.	1ryy	4a/
.	.	.	4ee\	.	4gg\	.	.	.	.	.	.	.
4r	.	.	.	.	.	.	.	.	.	.	.	4r
.	.	.	(>16dd\LL	.	(>16ff#\LL	.	.	.	.	.	.	.
.	.	.	16cc#\JJ)	.	16ee\JJ)	.	.	.	.	.	.	.
*	*	*	*	*	*	*	*	*ij	*	*	*	*
!	!	!	!	!	!LO:TX:t=P:problem=mixed beam	!	!	!	!	!	!	!
8r	.	.	8dd\L	.	8ff#\L	.	4A\	a-	4a\	a-	.	8r
16AA/LL	.	.	16a\L	.	16a/L	.	.	.	.	.	.	16a/LL
16AA/JJ	.	.	16a\JJ	.	16a/JJ	.	.	.	.	.	.	16a/JJ
8AA/L	.	.	8a/L	.	8a/L	.	4A\	-men	4a\	-men	.	8a/L
8AA/J	.	.	8a/J	.	8a/J	.	.	.	.	.	.	8a/J
=186	=186	=186	=186	=186	=186	=186	=186	=186	=186	=186	=186	=186
4AA/	.	.	8a/	.	8a/	.	2r	.	2r	.	4a/	4a/
.	.	.	4dd\	.	4ff#\	.	.	.	.	.	.	.
4r	.	.	.	.	.	.	.	.	.	.	4r	4r
.	.	.	16cc#\LL	.	(>16ee\LL	.	.	.	.	.	.	.
.	.	.	16b\JJ	.	16dd\JJ)	.	.	.	.	.	.	.
4A\	.	X 3_	8.cc#\L	.	8.cc#\L	.	4A\	a-	4cc#\	a-	4r	4r
.	.	.	16bb\Jk	.	16bb\Jk	.	.	.	.	.	.	.
4G\	.	X X	8.aa\L	.	8.aa\L	.	4G\	-men	4cc#\	-men	4a/	4ee\
*	*	*	*	*	*	*	*	*Xij	*	*	*	*
.	.	.	16cc#\Jk	.	16cc#\Jk	.	.	.	.	.	.	.
=187	=187	=187	=187	=187	=187	=187	=187	=187	=187	=187	=187	=187
4F#\	.	X 6	8.dd\L	.	8.dd\L	.	4F#\	a-	4dd\	a-	4dd\	4ff#\
.	.	.	16bb\Jk	.	16bb\K	.	.	.	.	.	.	.
4E\	.	X 6	8.aa\L	.	8.aa\	.	4E\	-amen	4cc#\	-men	4ee\	4gg\
.	.	.	16cc#\Jk	.	16cc#\Jk	.	.	.	.	.	.	.
8d\L|	.	.	8dd\L	.	8dd\L	.	8d\L	a-	8dd\L	a-	4ff#\	4aa\
16c#\L|	.	.	16cc#\L	.	16cc#\L	.	16c#\L	.	16cc#\L	.	.	.
16B\JJ|	.	.	16b\JJ	.	16b\JJ	.	16B\JJ	.	16b\JJ	.	.	.
8A\L	.	.	8a/L	.	8a/L	.	8A\L	.	8a\L	.	4r	4r
8F#\J	.	.	8f#/J	.	8f#/J	.	8F#\J	.	8f#\J	.	.	.
=188	=188	=188	=188	=188	=188	=188	=188	=188	=188	=188	=188	=188
4G\	.	.	4g/|	.	4g/	.	4G\	.	4g\	.	4r	4r
4A\	.	.	4a/|	.	4a/	.	4A\	.	4a\	.	4a/	4a/
4D\	.	.	4d/|	.	4d/	.	4D\	-men	4d/	-men	4d/	4d/
4r	.	.	4cc#\|	.	4ee\|	.	4r	.	4r	.	4r	4r
=189	=189	=189	=189	=189	=189	=189	=189	=189	=189	=189	=189	=189
4r	.	.	4dd\|	.	4ff#\|	.	4r	.	4r	.	4r	4r
4A\	.	.	4ee\|	.	4ccc#\|	.	4A\	a-	4ee\	a-	4a/	4a/
4D\	.	.	4ff# 4a 4d/	.	4ddd\|	.	4D/	-men	4ff#\	-men	4d/	4d/
4r	.	.	4r	.	4r	.	4r	.	4r	.	4r	4r
==;	==	==;	==	==	==;;	==	==;	==	==;	==	==;;	==;;
*-	*-	*-	*-	*-	*-	*-	*-	*-	*-	*-	*-	*-
!!!system-decoration: [(g1)][(g2)][(g3)]s7
!!!RDF**kern: | = vertical stroke
!!!RDF**kern: > = above
!!!RDF**kern: < = below
!!!ENC: Krzysztof Stępień
!!!END: 2020-12-10
!!!EED: Antoni Szymański
!!!EEV: 2022-03-23
